!!!COM: Beethoven, Ludwig van
!!!CDT: 1770///-1827///
!!!OTL: Piano Sonata no. 21 in C major
!!!OTP: Waldstein
!!!ODT: 1803///-1804///
!!!ODE: Graf Ferdinand von Waldstein
!!!OMD: Rondo: Allegretto moderato
!!!OPS: 53
!!!OMV: 3
**kern	**kern	**dynam
*staff2	*staff1	*staff1/2
*Ipiano	*Ipiano	*Ipiano
*clefF4	*clefF4	*clefF4
*k[]	*k[]	*k[]
*C:	*C:	*C:
*M2/4	*M2/4	*M2/4
*MM132	*MM132	*MM132
=1-	=1-	=1-
*ped	*	*
8CC	16r	.
.	(16ELL	pp
8r	16G	.
.	16cJJ	.
*clefG2	*	*
4gg''	16eLL	.
.	16E	.
.	16G	.
.	16cJJ	.
=2	=2	=2
(4.gg	16eLL	.
.	16E	.
.	16G	.
.	16cJJ	.
.	16eLL	.
.	16E	.
8ee	16G	.
.	16cJJ)	.
=3	=3	=3
4dd	16r	.
.	(16FLL	.
.	16G	.
.	16BJJ	.
4g	16dLL	.
.	16F	.
.	16G	.
.	16BJJ)	.
=4	=4	=4
4cc	16r	.
.	(16ELL	.
.	16G	.
.	16cJJ	.
8ee)	16eLL	.
.	16E	.
*clefF4	*	*
16r	16G	.
(16C	16cJJ)	.
=5	=5	=5
8CC)	16r	.
.	(16ELL	.
8r	16G	.
.	16cJJ	.
*clefG2	*	*
4gg''	16eLL	.
.	16E	.
.	16G	.
.	16cJJ)	.
!!LO:LB:g=z
=6	=6	=6
(4.gg	(16eLL	.
.	16E	.
.	16G	.
.	16cJJ	.
.	16eLL	.
.	16E	.
8ee	16G	.
.	16cJJ)	.
=7	=7	=7
4dd	16r	.
.	(16FLL	.
.	16G	.
.	16BJJ	.
4g	16dLL	.
.	16F	.
.	16G	.
.	16BJJ)	.
=8	=8	=8
8cc)	8r	.
8r	(16ELL	.
.	16GJJ	.
*	*clefG2	*clefG2
8.r	16cLL	.
.	16e	.
.	16d	.
*clefF4	*	*
!	!	!LO:DY:b=2:rj
(16GG	16cJJ)	pp
=9	=9	=9
*ped	*	*
8GGG)	(>16BLL	.
.	16G	.
8r	16B	.
.	16dJJ	.
*clefG2	*	*
4ff''	16gLL	.
.	16G	.
.	16B	.
.	16dJJ	.
=10	=10	=10
(4.ff	16gLL	.
.	16G	.
.	16B	.
.	16dJJ	.
.	16gLL	.
.	16G	.
8dd	16B	.
.	16gJJ)	.
=11	=11	=11
4ee	16r	.
.	(16GLL	.
.	16c	.
.	16gJJ)	.
4cc	16r	.
.	(16GLL	.
.	16e	.
.	16gJJ)	.
!!LO:LB:g=z
=12	=12	=12
4b	16r	.
.	(16GLL	.
.	16d	.
.	16gJJ)	.
8dd)	16r	.
.	(16GLL	.
*clefF4	*	*
16r	16B	.
!	!	!LO:DY:b=2:rj
(16GG	16gJJ)	pp
=13	=13	=13
*ped	*	*
8GGG)	16r	.
!	!	!LO:DY:rj
.	(16GLL	pp
8r	16B	.
.	16dJJ)	.
*clefG2	*	*
4ff''	(>16gLL	.
.	16G	.
.	16B	.
.	16dJJ	.
=14	=14	=14
(4.ff	16gLL	.
.	16G	.
.	16B	.
.	16dJJ	.
.	16gLL	.
.	16G	.
8dd	16B	.
.	16gJJ)	.
=15	=15	=15
4ee-	16r	.
.	(16GLL	.
.	16c	.
.	16gJJ)	.
4cc	16r	.
.	(16GLL	.
.	16e-	.
.	16gJJ)	.
=16	=16	=16
4b	16r	.
.	(16GLL	.
.	16d	.
.	16gJJ)	.
4dd)	16r	.
.	(16GLL	.
.	16B	.
.	16gJJ)	.
!!LO:LB:g=z
=17	=17	=17
(4een	16r	.
.	(16GLL	.
.	16c	.
.	16gJJ)	.
4cc	16r	.
.	(16GLL	.
.	16en	.
.	16gJJ)	.
=18	=18	=18
4b	16r	.
.	(16GLL	.
.	16d	.
.	16gJJ)	.
4dd)	16r	.
.	(16GLL	.
.	16B	.
.	16gJJ)	.
=19	=19	=19
(4ee-	16r	.
.	(16GLL	.
.	16c	.
.	16gJJ)	.
4cc)	16r	.
.	(16GLL	.
.	16c	.
.	16e-JJ)	.
=20	=20	=20
(4gg'	16r	.
.	(16GLL	.
.	16B	.
.	16dJJ)	.
4gg')	16r	.
.	(16GLL	.
.	16c	.
.	16e-JJ)	.
=21	=21	=21
(4gg'	16r	.
.	(16GLL	.
.	16B	.
.	16dJJ)	.
4gg')	16r	.
.	(16GLL	.
.	16c	.
.	16e-JJ)	.
=22	=22	=22
(4gg'	16r	.
.	(16GLL	.
.	16B	.
.	16dJJ)	.
4gg')	16r	.
.	(16GLL	.
.	16A	.
.	16cJJ)	.
!!LO:LB:g=z
=23	=23	=23
4gg	16r	.
.	(16GLL	pp
.	16B	.
.	16dJJ	.
4r	16gLL	.
.	16b	.
.	16a	.
.	16f#JJ	.
=24	=24	=24
2r	16gLL	.
.	16B	.
.	16d	.
.	16gJJ	.
.	16bLL	.
.	16dd	.
.	16cc	.
.	16aJJ)	.
=25	=25	=25
!	!LO:TX:i:a:t=legato	!
2r	(y16bLL	.
.	16g	.
.	16b	.
.	16ddJJ	.
.	16ggLL	.
.	16bb	.
.	16aa	.
.	16ff#JJ	.
=26	=26	=26
2r	16ggLL	<
.	16bb	.
.	16aa	.
.	16cccJJ	.
.	16bbLL	.
.	16ddd	.
.	16ccc#	.
.	16eeeJJ	.
!!LO:LB:g=z
=27	=27	=27
2r	16dddLL	.
.	16fff	.
.	16eee	.
.	16gggJJ	.
.	16fffLL	.
.	16aaa	.
.	16ggg	.
.	16eeeJJ	.
=28	=28	=28
2r	16dddLL	.
.	16fff	.
.	16eee	.
.	16gggJJ	.
.	16fffLL	.
.	16aaa	.
.	16ggg	.
.	16eeeJJ	.
=29	=29	=29
2r	16dddLL	>
.	16fff	.
.	16eee	.
.	16cccnJJ	.
.	16bbLL	.
.	16ddd	.
.	16ccc	.
.	16aaJJ	.
=30	=30	=30
2r	16ggLL	.
.	16bb	.
.	16aa	.
.	16ffJJ	.
.	16eeLL	.
.	16gg	.
.	16ff	.
.	16ddJJ	.
*clefF4	*	*
=31	=31	=31
*ped	*	*
16CC	8cc)	pp
16GGLL	.	.
16C	8r	.
16EJJ	.	.
16GLL	4gg'' 4ggg''	.
16C	.	.
16E	.	.
16GJJ	.	.
!!LO:LB:g=z
=32	=32	=32
16cLL	4.gg (4.ggg	.
16E	.	.
16G	.	.
16cJJ	.	.
16eLL	.	.
16G	.	.
16c	8ee 8eee	.
16eJJ	.	.
=33	=33	=33
16fLL	4dd 4ddd	.
16e	.	.
16d	.	.
16cJJ	.	.
16BLL	4g 4gg	.
16A	.	.
16G	.	.
16FJJ	.	.
=34	=34	=34
16ELL	4cc 4ccc	.
16G	.	.
16C	.	.
16EJJ	.	.
16GGLL	8ee 8eee)	.
16C	.	.
16EE	8r	.
16GGJJ	.	.
=35	=35	=35
16CCLL	4r	.
16GG	.	.
16C	.	.
16EJJ	.	.
16GLL	4gg'' 4ggg''	.
16C	.	.
16E	.	.
16GJJ	.	.
=36	=36	=36
16cLL	4.gg (4.ggg	.
16E	.	.
16G	.	.
16cJJ	.	.
16eLL	.	.
16G	.	.
16c	8ee 8eee	.
16eJJ	.	.
!!LO:LB:g=z
=37	=37	=37
16fLL	4dd 4ddd	.
16e	.	.
16d	.	.
16cJJ	.	.
16BLL	4g 4gg	.
16G	.	.
16A	.	.
16BJJ	.	.
=38	=38	=38
16cLL	8cc 8ccc)	.
16B'	.	.
16A'	8r	.
16G'JJ	.	.
16F'LL	4r	.
16E'	.	.
16D'	.	.
16C'JJ	.	.
=39	=39	=39
*ped	*	*
!LO:TX:a:i:t=legato	!	!
16GG'LL<	4r	.
16BB	.	.
16D	.	.
16GJJ	.	.
16BBLL	4ff'' 4fff''	.
16D	.	.
16G	.	.
16BJJ	.	.
=40	=40	=40
16DLL	4.ff (4.fff	.
16G	.	.
16B	.	.
16dJJ	.	.
16GLL	.	.
16B	.	.
16d	8dd 8ddd	.
16gJJ	.	.
=41	=41	=41
16GLL	4ee 4eee	.
16c	.	.
16g	.	.
16cJJ	.	.
16GLL	4cc 4ccc	.
16e	.	.
16g	.	.
16eJJ	.	.
!!LO:LB:g=z
=42	=42	=42
16GLL	4b 4bb	.
16d	.	.
16g	.	.
16dJJ	.	.
16GLL	8dd 8ddd)	.
16B	.	.
16g	8r	.
16BJJ	.	.
=43	=43	=43
*ped	*	*
16GGLL<	4r	.
16BB	.	.
16D	.	.
16GJJ	.	.
16BBLL	4ff'' 4fff''	.
16D	.	.
16G	.	.
16BJJ	.	.
=44	=44	=44
16DLL	4.ff (4.fff	.
16G	.	.
16B	.	.
16dJJ	.	.
16GLL	.	.
16B	.	.
16d	8dd 8ddd	.
16gJJ	.	.
=45	=45	=45
16GLL	4ee- 4eee-	.
16c	.	.
16g	.	.
16cJJ	.	.
16GLL	4cc 4ccc	.
16e-	.	.
16g	.	.
16e-JJ	.	.
=46	=46	=46
16GLL	4b 4bb	.
16d	.	.
16g	.	.
16dJJ	.	.
16GLL	4dd 4ddd)	.
16B	.	.
16g	.	.
16BJJ	.	.
!!LO:LB:g=z
=47	=47	=47
*clefF4	*	*
16GLL	4een (4eeen	<
16c	.	.
16g	.	.
16cJJ	.	.
16GLL	4cc 4ccc	.
16en	.	.
16g	.	.
16eJJ	.	.
=48	=48	=48
16GLL	4b 4bb	.
16d	.	.
16g	.	.
16dJJ	.	.
16GLL	4dd 4ddd	.
16B	.	.
16g	.	.
16BJJ	.	.
=49	=49	=49
16GLL	4ee- 4eee-	p
16c	.	.
16g	.	.
16cJJ	.	.
16GLL	4cc 4ccc)	>
16c	.	.
16e-	.	.
16cJJ	.	.
=50	=50	=50
16GLL	(4gg'	.
16B	.	.
16d	.	.
16BJJ	.	.
16GLL	4gg')	.
16c	.	.
16e-	.	.
16cJJ	.	.
=51	=51	=51
.	(8aanq	.
16G'LL	[2gg)TT	<
(16B	.	.
16d	.	.
16BJJ)	.	.
16G'LL	.	.
(16c	.	.
16en	.	.
16cJJ)	.	.
!!LO:LB:g=z
=52	=52	=52
16G'LL	2gg_TTT	.
(16B	.	.
16d	.	.
16BJJ)	.	.
16G'LL	.	.
(16A	.	.
16c	.	.
16AJJ)	.	.
=53	=53	=53
16G'LL	2gg_TTT	.
(16B	.	.
16A	.	.
16GJJ)	.	.
16F'LL	.	.
(16A	.	.
16G	.	.
16FJJ)	.	.
=54	=54	=54
16E'LL	2gg]TTT	ff
(16G	.	.
16F	.	.
16EJJ)	.	.
16D'LL	.	.
(16F	.	.
16E	.	.
16DJJ)	.	.
=55	=55	=55
*	*^	*
*ped	*	*	*
!	!	!	!LO:DY:rj:b=2
16CC 16CLL	4r	[2ggTT	ff
(32DL	.	.	.
32EJJJ	.	.	.
32FLLL	.	.	.
32G	.	.	.
32A	.	.	.
32BJJJ)	.	.	.
*clefG2	*	*	*
16c''LL	4ggg''	.	.
(32dL	.	.	.
32eJJJ	.	.	.
32fLLL	.	.	.
32g	.	.	.
32a	.	.	.
32bJJJ)	.	.	.
=56	=56	=56	=56
16cc''LL	(4.ggg	2gg_TTT	.
!	!	!	!LO:HP:a
16b'	.	.	>
16a'	.	.	.
16g'JJ	.	.	.
16f'LL	.	.	.
16e'	.	.	.
16d'	8eee	.	]
16c'JJ	.	.	.
*clefF4	*	*	*
!!LO:LB:g=z
=57	=57	=57	=57
16B'LL	4ddd)	4gg]TTT	.
16c'	.	.	.
16B'	.	.	.
16A'JJ	.	.	.
16G'LL	4gg	[4ggTTT	.
16F'	.	.	.
16E'	.	.	.
16D'JJ	.	.	.
=58	=58	=58	=58
16CLL	(4ccc	2gg_TTT	.
16C'	.	.	.
16BB'	.	.	.
16AA'JJ	.	.	.
16GG'LL	8eee)	.	.
16FF'	.	.	.
16EE'	8r	.	.
16DD'JJ	.	.	.
=59	=59	=59	=59
!	!	!	!LO:DY:rj
*ped	*	*	*
16CC'' 16C''LL	4r	2gg_TTT	ff
(32DL	.	.	.
32EJJJ	.	.	.
32FLLL	.	.	.
32G	.	.	.
32A	.	.	.
32BJJJ)	.	.	.
*clefG2	*	*	*
16c''LL	4ggg	.	.
(32dL	.	.	.
32eJJJ	.	.	.
32fLLL	.	.	.
32g	.	.	.
32a	.	.	.
32bJJJ)	.	.	.
=60	=60	=60	=60
16cc''LL	(4.ggg	2gg_TTT	.
!	!	!	!LO:HP:a
16b'	.	.	>
16a'	.	.	.
16g'JJ	.	.	.
16f'LL	.	.	.
16e'	.	.	.
16d'	8eee	.	]
16c'JJ	.	.	.
*clefF4	*	*	*
=61	=61	=61	=61
*Xped	*	*	*
16B'LL	4ddd)	4gg]TTT	.
16c'	.	.	.
16B'	.	.	.
16A'JJ	.	.	.
16G'LL	4ggT	4ggTTT	.
16F'	.	.	.
16E'	.	.	.
16D'JJ	.	.	.
.	.	(16ff#LLq	.
.	.	16ggJJq)	.
=62	=62	=62	=62
*^	*	*	*
8CL	4.ryy	8ccc	8ccc	.
8CCJ	.	4.ryy	8r	.
8r	.	.	24cLL	f
.	.	.	24e	.
.	.	.	24cJJ	.
24GLL	8CC' 8C'	.	8r	.
24E	.	.	.	.
24GJJ	.	.	.	.
*	*	*v	*v	*
=63	=63	=63	=63
8r	8r	24cLL	.
.	.	24f	.
.	.	24cJJ	.
*Xtuplet	*	*	*
24ALL	8CC' 8C'	8r	.
24F	.	.	.
24AJJ	.	.	.
*	*	*Xtuplet	*
8r	8r	24cLL	.
.	.	24e	.
.	.	24cJJ	.
24GLL	8CC' 8C'	8r	.
24E	.	.	.
24GJJ	.	.	.
=64	=64	=64	=64
8r	8r	24cLL	.
.	.	24d	.
.	.	24cJJ	.
24FLL	8CC' 8C'	8r	.
24D	.	.	.
24FJJ	.	.	.
8r	8r	24cLL	.
.	.	24d#	.
.	.	24cJJ	.
24F#LL	8CC' 8C'	8r	.
24D#	.	.	.
24F#JJ	.	.	.
=65	=65	=65	=65
8r	8r	24cLL	.
.	.	24e	.
.	.	24cJJ	.
24GLL	8CC' 8C'	8ryy	.
24E	.	.	.
24GJJ	.	.	.
24BLL	8r	8ryy	.
24d	.	.	.
24BJJ	.	.	.
24FnLL	8CC' 8C'	8ryy	.
24Dn	.	.	.
24FJJ	.	.	.
!!LO:LB:g=z
=66	=66	=66	=66
24GLL	8r	4ryy	.
24c	.	.	.
24GJJ	.	.	.
24ELL	8CC'	.	.
24C	.	.	.
24EJJ	.	.	.
8r	4ryy	24eLL	.
.	.	24g	.
.	.	24eJJ	.
8EE' 8C' 8E'	.	24cLL	.
.	.	24G	.
.	.	24cJJ	.
*v	*v	*	*
=67	=67	=67
8r	24fLL	.
.	24a	.
.	24fJJ	.
8FF' 8C' 8F'	24cLL	.
.	24A	.
.	24cJJ	.
8r	24eLL	.
.	24g	.
.	24eJJ	.
8EE' 8C' 8E'	24cLL	.
.	24G	.
.	24cJJ	.
=68	=68	=68
*^	*	*
8r	8r	24dLL	.
.	.	24f	.
.	.	24dJJ	.
24cLL	8DD' 8C' 8D'	8ryy	.
24F	.	.	.
24cJJ	.	.	.
8r	8r	24d#LL	.
.	.	24f#	.
.	.	24d#JJ	.
24cLL	8DD#' 8C' 8D#'	8ryy	.
24F#	.	.	.
24cJJ	.	.	.
=69	=69	=69	=69
8r	8r	24eLL	.
.	.	24g	.
.	.	24eJJ	.
24cLL	8EE' 8C' 8E'	8ryy	.
24G	.	.	.
24cJJ	.	.	.
8r	8r	24dnLL	.
.	.	24fn	.
.	.	24dJJ	.
24BLL	8DDn' 8C' 8Dn'	8ryy	.
24Fn	.	.	.
24BJJ	.	.	.
!!LO:LB:g=z
=70	=70	=70	=70
8r	8r	24cLL	.
.	.	24e	.
.	.	24cJJ	.
24ELL	8CC' 8C'L	8ryy	.
24e>	.	.	.
24EJJ	.	.	.
24r	8EE	8ryy	.
24ELL	.	.	.
24e>JJ	.	.	.
24r	8EE'J	8ryy	.
24ELL	.	.	.
24e>JJ	.	.	.
=71	=71	=71	=71
!	!	!	!LO:DY:b=2:rj
24r	8AAA' 8AA'L	4ryy	f
24ALL	.	.	.
24a>JJ	.	.	.
24r	8BBB' 8BB'	.	.
24BLL	.	.	.
24b>JJ	.	.	.
4r	8CC' 8C'	24r	.
.	.	24cLL	.
.	.	24ccJJ	.
.	8DD' 8D'J	24r	.
.	.	24dLL	.
.	.	24ddJJ	.
*v	*v	*	*
=72	=72	=72
4EE 4E	24eeLL>	sf
.	24e	.
.	24eeJJ	.
.	24eLL	.
.	24ee	.
.	24eJJ	.
8EE' 8E'L	24r	.
.	24eLL	.
.	24eeJJ	.
8DD' 8D'J	24r	.
.	24dLL	.
.	24ddJJ	.
=73	=73	=73
8CC' 8C'L	24r	sf
.	24cLL	.
.	24ccJJ	.
8BBB' 8BB'J	24r	.
.	24BLL	.
.	24bJJ	.
8CC' 8C'L	24r	.
.	24cLL	.
.	24ccJJ	.
8AAA' 8AA'J	24r	.
.	24ALL	.
.	24aJJ	.
!!LO:LB:g=z
=74	=74	=74
4EE	24e>LL	.
.	24E	.
.	24e>JJ	.
.	24ELL	.
.	24e>	.
.	24EJJ	.
8EE' 8E'L<	24r	.
.	24eLL<	.
.	24eeJJ	.
8EE' 8E'J	24r	.
.	24eLL<	.
.	24eeJJ	.
=75	=75	=75
8AA' 8A'L	24r	.
.	24aLL	.
.	24aaJJ	.
8BB' 8B'	24r	.
.	24bLL	.
.	24bbJJ	.
8C' 8c'	24r	.
.	24ccLL	.
.	24cccJJ	.
8D' 8d'J	24r	.
.	24ddLL	.
.	24dddJJ	.
=76	=76	=76
4E 4e	24eeeLL	sf
.	24ee	.
.	24eeeJJ	.
.	24eeLL	.
.	24eee	.
.	24eeJJ	.
8E' 8e'L	24r	.
.	24eeLL	.
.	24eeeJJ	.
8D' 8d'J	24r	.
.	24ddLL	.
.	24dddJJ	.
=77	=77	=77
8C' 8c'L	24r	.
.	24ccLL	.
.	24cccJJ	.
8BB' 8B'J	24r	.
.	24bLL	.
.	24bbJJ	.
8C' 8c'L	24r	.
.	24ccLL	.
.	24cccJJ	.
8AA' 8A'J	24r	.
.	24aLL	.
.	24aaJJ	.
!!LO:LB:g=z
=78	=78	=78
4EE 4E	24eeLL	sf
.	24e	.
.	24eeJJ	.
.	24eLL<	.
.	24ee	.
.	24eJJ	.
8FF 8AA 8FL	24aaLL	sf
.	24a	.
.	24aaJJ	.
8FF 8AA 8FJ	24aLL	.
.	24aa	.
.	24aJJ	.
=79	=79	=79
8EE 8AA 8EL	24aaLL	sf
.	24a	.
.	24aaJJ	.
8EE 8AA 8EJ	24aLL	.
.	24aa	.
.	24aJJ	.
8DD 8AA 8DL	24aaLL	sf
.	24a	.
.	24aaJJ	.
8DD 8AA 8DJ	24aLL	.
.	24aa	.
.	24aJJ	.
=80	=80	=80
8CC 8AA 8CL	24aaLL	sf
.	24a	.
.	24aaJJ	.
8CC 8AA 8CJ	24aLL	.
.	24aa	.
.	24aJJ	.
8DD 8AA 8DL	24ffLL	.
.	24gg	.
.	24aaJJ	.
8DD 8AA 8DJ	24ffLL	.
.	24ee	.
.	24ddJJ	.
=81	=81	=81
8EE 8AA 8EL	24ccLL	.
.	24dd	.
.	24eeJJ	.
8EE 8EJ	24ccLL	.
.	24b	.
.	24aJJ	.
8EE 8EL	24bLL	.
.	24cc	.
.	24ddJJ	.
8EE 8EJ	24bLL	.
.	24a	.
.	24g#JJ	.
!!LO:LB:g=z
=82	=82	=82
(16AAALL	24aLL	sf
.	24A	.
16AA	.	.
.	24aJJ	.
16GG#	24ALL	.
.	24a	.
16AAJJ)	.	.
.	24AJJ	.
(16FFLL	24aLL	sf
.	24A	.
16AA	.	.
.	24aJJ	.
16GG#	24ALL	.
.	24a	.
16AAJJ)	.	.
.	24AJJ	.
=83	=83	=83
(16EELL	24aLL	sf
.	24A	.
16AA	.	.
.	24aJJ	.
16GG#	24ALL	.
.	24a	.
16AAJJ)	.	.
.	24AJJ	.
(16DDLL	24aLL	sf
.	24A	.
16AA	.	.
.	24aJJ	.
16GG#	24ALL	.
.	24a	.
16AAJJ)	.	.
.	24AJJ	.
=84	=84	=84
(16CCLL	24aLL	sf
.	24A	.
16AA	.	.
.	24aJJ	.
16GG#	24ALL	.
.	24a	.
16AAJJ)	.	.
.	24AJJ	.
16DDLL	24fLL	.
.	24g	.
16AA	.	.
.	24aJJ	.
16DD	24fLL	.
.	24e	.
16AAJJ	.	.
.	24dJJ	.
=85	=85	=85
16EELL	24cLL	.
.	24d	.
16AA	.	.
.	24eJJ	.
16EE	24cLL	.
.	24B	.
16EJJ	.	.
.	24AJJ	.
16EELL	24BLL	.
.	24c	.
16E	.	.
.	24dJJ	.
16EE	24BLL	.
.	24A	.
16EJJ	.	.
.	24G#JJ	.
!!LO:LB:g=z
=86	=86	=86
*^	*	*
16AALL	4ryy	8A	.
16E	.	.	.
16C	.	8r	.
16EJJ	.	.	.
16BBLL	8AAL	8ee'' 8eee''L	ff
16E	.	.	.
16D	8AAJ	8ee'' 8eee''J	.
16EJJ	.	.	.
=87	=87	=87	=87
16CLL	8AAL	8e'' 8ee''L	.
16E	.	.	.
16C	8AAJ	8e'' 8ee''	.
16EJJ	.	.	.
16BBLL	8AAL	8e'' 8ee''	.
16E	.	.	.
16D	8AAJ	8g#'' 8gg#''J	.
16EJJ	.	.	.
=88	=88	=88	=88
16CLL	8AA	4a 4aa	.
16A	.	.	.
16E	8r	.	.
16AJJ	.	.	.
16DLL	8AA	(16bbLL	p
16G#	.	16ddd	.
16E	8r	16ccc	.
16G#JJ	.	16bbJJ	.
=89	=89	=89	=89
16CLL	8AA	16cccLL	.
16A	.	16eee	.
16E	8r	16ddd	.
16AJJ	.	16cccJJ	.
16DLL	8AA	16bbLL	.
16G#	.	16ddd	.
16E	8r	16ccc	.
16G#JJ	.	16bbJJ	.
=90	=90	=90	=90
16CLL	8AA	4aa)	.
16A	.	.	.
16E	8r	.	.
16AJJ	.	.	.
16BBLL	8AAL	8ee'' 8eee''L	f
16E	.	.	.
16D	8AAJ	8ee'' 8eee''J	.
16EJJ	.	.	.
!!LO:LB:g=z
=91	=91	=91	=91
16CLL	8AAL	8e'' 8ee''L	.
16E	.	.	.
16C	8AAJ	8e'' 8ee''	.
16EJJ	.	.	.
16BBLL	8AAL	8e'' 8ee''	.
16E	.	.	.
16D	8AAJ	8g#'' 8gg#''J	.
16EJJ	.	.	.
=92	=92	=92	=92
16CLL	8AA	4a 4aa	sf
16A	.	.	.
16E	8rGG	.	.
16AJJ	.	.	.
16DLL	8AA	(16bbLL	p
16G#	.	16ddd	.
16E	8rGG	16ccc	.
16G#JJ	.	16bbJJ	.
=93	=93	=93	=93
16CLL	8AA	16cccLL	.
16A	.	16eee	.
16E	8rGG	16ddd	.
16AJJ	.	16cccJJ	.
16DLL	8AA	16bbLL	.
16G#	.	16ddd	.
16E	8rGG	16ccc	.
16G#JJ	.	16bbJJ)	.
=94	=94	=94	=94
16CLL	8AA	(16aaLL	.
16A	.	16ccc	.
16E	8rGG	16bb	.
16AJJ	.	16aaJJ	.
16DLL	8AA	16bbLL	>
16G#	.	16ddd	.
16E	8rGG	16ccc	.
16G#JJ	.	16bbJJ	.
=95	=95	=95	=95
16CLL	8AA	16cccLL	.
16A	.	16eee	.
16E	8rGG	16ddd	.
16AJJ	.	16cccJJ	.
16DLL	8AA	16bbLL	.
16G#	.	16ddd	.
16E	8rGG	16ccc	.
16G#JJ	.	16bbJJ	.
!!LO:LB:g=z
=96	=96	=96	=96
16CLL	8AA	16aaLL	pp
16A	.	16ccc	.
16E	8rGG	16bb	.
16AJJ	.	16aaJJ	.
16DLL	8AA	16bbLL	.
16G#	.	16ddd	.
16E	8rGG	16ccc	.
16G#JJ	.	16bbJJ	.
=97	=97	=97	=97
16CLL	8AA	16aaLL	.
16A	.	16ccc	.
16E	8rGG	16bb	.
16AJJ	.	16aaJJ	.
16DLL	8AA	16bbLL	.
16G#	.	16ddd	.
16E	8rGG	16ccc	.
16G#JJ	.	16bbJJ	.
*v	*v	*	*
=98	=98	=98
*ped	*	*
8AA 8A	8aa)	.
8r	8r	.
4e''	4ee''	.
=99	=99	=99
4.e	(4.ee	sf >
8c	8cc	]]
=100	=100	=100
4B	4b	.
4E	4e	.
=101	=101	=101
8A	8a)	.
8r	8r	.
4r	4r	.
*Xped	*	*
*	*clefF4	*clefF4
=102	=102	=102
*ped	*	*
8FFF 8FF	8F	ff
8r	8r	.
*	*clefG2	*clefG2
4c''	4cc'' 4ccc''	.
!!LO:LB:g=z
=103	=103	=103
4.c	4.cc (4.ccc	sf >
8A	8a 8aa	]]
=104	=104	=104
4G	4g 4gg	p
4C	4c 4cc	.
=105	=105	=105
8F	8f 8ff)	.
*Xped	*	*
8r	8r	.
4r	4r	.
=106	=106	=106
*ped	*	*
8GGG 8GG	8G	ff
8r	8r	.
4f''	4ff'' 4fff''	.
=107	=107	=107
(4.f	4.ff (4.fff	sf >
8d	8dd 8ddd	]]
=108	=108	=108
4B	4b 4bb	p
4G	4g 4gg	.
=109	=109	=109
4.F)	4.f/ 4.ff/)	>
(<8D	8d (8dd	.
=110	=110	=110
*^	*	*
4ryy	4BB\	4B 4b	.
4G	4GG	4g	.
=111	=111	=111	=111
4.F	4.FF	4.f	.
8D	8DD)	8d)	.
!!LO:LB:g=z
=112	=112	=112	=112
4BB 4B	4BBB	2r	.
4r	4r	.	.
=113	=113	=113	=113
4G	4GGG 4GG	2r	.
4r	4r	.	.
*v	*v	*	*
*	*clefF4	*clefF4
=114	=114	=114
8CC	16r	.
.	(16ELL	pp
8r	16G	.
.	16cJJ	.
*clefG2	*	*
4gg''	16eLL	.
.	16E	.
.	16G	.
.	16cJJ	.
=115	=115	=115
(4.gg	16eLL	.
.	16E	.
.	16G	.
.	16cJJ	.
.	16eLL	.
.	16E	.
8ee	16G	.
.	16cJJ)	.
=116	=116	=116
4dd	16r	.
.	16FLL	.
.	16G	.
.	16BJJ	.
4g	16dLL	.
.	16F	.
.	16G	.
.	16BJJ	.
=117	=117	=117
4cc	16r	.
.	16ELL	.
.	16G	.
.	16cJJ	.
8ee)	16eLL	.
.	16E	.
*clefF4	*	*
16r	16G	.
(16C	16cJJ	.
!!LO:LB:g=z
=118	=118	=118
8CC)	16r	.
.	16ELL	.
8r	16G	.
.	16cJJ	.
*clefG2	*	*
4gg''	16eLL	.
.	16E	.
.	16G	.
.	16cJJ	.
=119	=119	=119
(4.gg	(16eLL	.
.	16E	.
.	16G	.
.	16cJJ	.
.	16eLL	.
.	16E	.
8ee	16G	.
.	16cJJ)	.
=120	=120	=120
4dd	16r	.
.	16FLL	.
.	16G	.
.	16BJJ	.
4g	16dLL	.
.	16F	.
.	16G	.
.	16BJJ	.
=121	=121	=121
8cc)	8r	.
8r	16ELL	.
.	16GJJ	.
*	*clefG2	*clefG2
8.r	16cLL	.
.	16e	.
.	16d	.
*clefF4	*	*
(16GG	16cJJ	pp
=122	=122	=122
8GGG)	16BLL	.
.	16G	.
8r	16B	.
.	16dJJ	.
*clefG2	*	*
4ff''	16gLL	.
.	16G	.
.	16B	.
.	16dJJ	.
!!LO:LB:g=z
=123	=123	=123
(4.ff	16gLL	.
.	16G	.
.	16B	.
.	16dJJ	.
.	16gLL	.
.	16G	.
8dd	16B	.
.	16gJJ	.
=124	=124	=124
4ee	16r	.
.	16GLL	.
.	16c	.
.	16gJJ	.
4cc	16r	.
.	16GLL	.
.	16e	.
.	16gJJ	.
=125	=125	=125
4b	16r	.
.	16GLL	.
.	16d	.
.	16gJJ	.
8dd)	16r	.
.	16GLL	.
*clefF4	*	*
16r	16B	.
(16GG	16gJJ	pp
=126	=126	=126
8GGG)	16r	.
.	16GLL	pp
8r	16B	.
.	16dJJ	.
*clefG2	*	*
4ff	16gLL	.
.	16G	.
.	16B	.
.	16dJJ	.
=127	=127	=127
(4.ff	16gLL	.
.	16G	.
.	16B	.
.	16dJJ	.
.	16gLL	.
.	16G	.
8dd	16B	.
.	16gJJ	.
!!LO:LB:g=z
=128	=128	=128
4ee-	16r	.
.	16GLL	.
.	16c	.
.	16gJJ	.
4cc	16r	.
.	16GLL	.
.	16e-	.
.	16gJJ	.
=129	=129	=129
4b	16r	.
.	16GLL	.
.	16d	.
.	16gJJ	.
4dd)	16r	.
.	16GLL	.
.	16B	.
.	16gJJ	.
=130	=130	=130
(4een	16r	.
.	(16GLL	.
.	16c	.
.	16gJJ)	.
4cc	16r	.
.	(16GLL	.
.	16en	.
.	16gJJ)	.
=131	=131	=131
4b	16r	.
.	16GLL	.
.	16d	.
.	16gJJ	.
4dd)	16r	.
.	16GLL	.
.	16B	.
.	16gJJ	.
=132	=132	=132
(4ee-	16r	.
.	(16GLL	.
.	16c	.
.	16gJJ)	.
4cc)	16r	.
.	(16GLL	.
.	16c	.
.	16e-JJ)	.
!!LO:LB:g=z
=133	=133	=133
(4gg'	16r	.
.	(16GLL	.
.	16B	.
.	16dJJ)	.
4gg')	16r	.
.	(16GLL	.
.	16c	.
.	16e-JJ)	.
=134	=134	=134
(4gg'	16r	.
.	(16GLL	.
.	16B	.
.	16dJJ)	.
4gg')	16r	.
.	(16GLL	.
.	16c	.
.	16e-JJ)	.
=135	=135	=135
(4gg'	16r	.
.	(16GLL	.
.	16B	.
.	16dJJ)	.
4gg')	16r	.
.	(16GLL	.
.	16A	.
.	16cJJ)	.
=136	=136	=136
4gg	16r	.
.	(16GLL	pp
.	16B	.
.	16dJJ	.
4r	16gLL	.
.	16b	.
.	16a	.
.	16f#JJ	.
=137	=137	=137
2r	16gLL	.
.	16B	.
.	16d	.
.	16gJJ	.
.	16bLL	.
.	16dd	.
.	16cc	.
.	16aJJ)	.
!!LO:LB:g=z
=138	=138	=138
2r	16bLL	.
.	16g	.
.	16b	.
.	16ddJJ	.
.	16ggLL	.
.	16bb	.
.	16aa	.
.	16ff#JJ	.
=139	=139	=139
2r	16ggLL	.
.	16bb	.
.	16aa	.
.	16cccJJ	.
.	16bbLL	.
.	16ddd	.
.	16ccc#	.
.	16eeeJJ	.
=140	=140	=140
2r	16dddLL	.
.	16fff	.
.	16eee	.
.	16gggJJ	.
.	16fffLL	.
.	16aaa	.
.	16ggg	.
.	16eeeJJ	.
=141	=141	=141
2r	16dddLL	.
.	16fff	.
.	16eee	.
.	16gggJJ	.
.	16fffLL	.
.	16aaa	.
.	16ggg	.
.	16eeeJJ	.
=142	=142	=142
2r	16dddLL	.
.	16fff	.
.	16eee	.
.	16cccnJJ	.
.	16bbLL	.
.	16ddd	.
.	16ccc	.
.	16aaJJ	.
!!LO:LB:g=z
=143	=143	=143
2r	16ggLL	.
.	16bb	.
.	16aa	.
.	16ffJJ	.
.	16eeLL	.
.	16gg	.
.	16ff	.
.	16ddJJ	.
*clefF4	*	*
=144	=144	=144
16CC'	8cc	pp
16GGLL	.	.
16C	8r	.
16EJJ	.	.
16GLL	4gg'' 4ggg''	.
16C	.	.
16E	.	.
16GJJ	.	.
=145	=145	=145
16cLL	4.gg (4.ggg	.
16E	.	.
16G	.	.
16cJJ	.	.
16eLL	.	.
16G'	.	.
16c	8ee 8eee	.
16eJJ	.	.
=146	=146	=146
16fLL	4dd 4ddd	.
16e	.	.
16d	.	.
16cJJ	.	.
16BLL	4g 4gg	.
16A	.	.
16G	.	.
16FJJ	.	.
=147	=147	=147
16ELL	4cc 4ccc	.
16G	.	.
16C	.	.
16EJJ	.	.
16GGLL	8ee 8eee)	.
16C	.	.
16EE	8r	.
16GGJJ	.	.
!!LO:LB:g=z
=148	=148	=148
16CC'	4r	.
16GGLL	.	.
16C	.	.
16EJJ	.	.
16GLL	4gg'' 4ggg''	.
16C	.	.
16E	.	.
16GJJ	.	.
=149	=149	=149
16cLL	4.gg (4.ggg	.
16E	.	.
16G	.	.
16cJJ	.	.
16eLL	.	.
16G	.	.
16c	8ee 8eee	.
16eJJ	.	.
=150	=150	=150
16fLL	4dd 4ddd	.
16e	.	.
16d	.	.
16cJJ	.	.
16BLL	4g 4gg	.
16G	.	.
16A	.	.
16BJJ	.	.
=151	=151	=151
16c'LL	8cc 8ccc)	.
16B'	.	.
16A'	8r	.
16G'JJ	.	.
16F'LL	4r	.
16E'	.	.
16D'	.	.
16C'JJ	.	.
=152	=152	=152
16GG'LL	4r	.
16BB	.	.
16D	.	.
16GJJ	.	.
16BBLL	4ff'' 4fff''	.
16D	.	.
16G	.	.
16BJJ	.	.
!!LO:LB:g=z
=153	=153	=153
16D'LL	4.ff (4.fff	.
16G	.	.
16B	.	.
16dJJ	.	.
16GLL	.	.
16B	.	.
16d	8dd 8ddd	.
16gJJ	.	.
=154	=154	=154
16GLL	4ee 4eee	.
16c	.	.
16g	.	.
16cJJ	.	.
16GLL	4cc 4ccc	.
16e	.	.
16g	.	.
16eJJ	.	.
=155	=155	=155
16GLL	4b 4bb	.
16d	.	.
16g	.	.
16dJJ	.	.
16GLL	8dd 8ddd)	.
16B	.	.
16g	8r	.
16BJJ	.	.
=156	=156	=156
16GGLL	4r	.
16BB	.	.
16D	.	.
16GJJ	.	.
16BBLL	4ff'' 4fff''	.
16D	.	.
16G	.	.
16BJJ	.	.
=157	=157	=157
16DLL	4.ff (4.fff	.
16G	.	.
16B	.	.
16dJJ	.	.
16GLL	.	.
16B	.	.
16d	8dd 8ddd	.
16gJJ	.	.
!!LO:LB:g=z
=158	=158	=158
16GLL	4ee- 4eee-	.
16c	.	.
16g	.	.
16cJJ	.	.
16GLL	4cc 4ccc	.
16e-	.	.
16g	.	.
16e-JJ	.	.
=159	=159	=159
16GLL	4b 4bb	.
16d	.	.
16g	.	.
16dJJ	.	.
16GLL	4dd 4ddd)	.
16B	.	.
16g	.	.
16BJJ	.	.
=160	=160	=160
16GLL	4een (4eeen	.
16c	.	.
16g	.	.
16cJJ	.	.
16GLL	4cc 4ccc	.
16en	.	.
16g	.	.
16eJJ	.	.
=161	=161	=161
16GLL	4b 4bb	.
16d	.	.
16g	.	.
16dJJ	.	.
16GLL	4dd 4ddd	.
16B	.	.
16g	.	.
16BJJ	.	.
=162	=162	=162
16GLL	4ee- 4eee-	p
16c	.	.
16g	.	.
16cJJ	.	.
16GLL	4cc 4ccc)	.
16c	.	.
16e-	.	.
16cJJ	.	.
!!LO:LB:g=z
=163	=163	=163
16GLL	(4gg'	.
16B	.	.
16d	.	.
16BJJ	.	.
16GLL	4gg')	.
16c	.	.
16e-	.	.
16cJJ	.	.
=164	=164	=164
.	aaq	.
16G'LL	[2gg	.
(16B	.	.
16d	.	.
16BJJ)	.	.
16G'LL	.	.
(16c	.	.
16en	.	.
16cJJ)	.	.
=165	=165	=165
16G'LL	2gg_	.
(16B	.	.
16d	.	.
16BJJ)	.	.
16G'LL	.	.
(16A	.	.
16c	.	.
16AJJ)	.	.
=166	=166	=166
16G'LL	2gg_	.
(16B	.	.
16A	.	.
16GJJ)	.	.
16F'LL	.	.
(16A	.	.
16G	.	.
16FJJ)	.	.
=167	=167	=167
16E'LL	2gg]	.
(16G	.	.
16F	.	.
16EJJ)	.	.
16D'LL	.	.
(16F	.	.
16E	.	.
16DJJ)	.	.
!!LO:LB:g=z
=168	=168	=168
*	*^	*
16CC'' 16C''LL	4r	[2gg	ff
(32DL	.	.	.
32EJJJ	.	.	.
32FLLL	.	.	.
32G	.	.	.
32A'	.	.	.
32BJJJ)	.	.	.
*clefG2	*	*	*
16c''LL	4ggg''	.	.
(32dL	.	.	.
32eJJJ	.	.	.
32fLLL	.	.	.
32g	.	.	.
32a	.	.	.
32bJJJ)	.	.	.
=169	=169	=169	=169
16cc'LL	(4.ggg	2gg_	>
16b'	.	.	.
16a'	.	.	.
16g'JJ	.	.	.
16f'LL	.	.	.
16e'	.	.	.
16d'	8eee	.	.
16c'JJ	.	.	.
*clefF4	*	*	*
=170	=170	=170	=170
16B'LL	4ddd)	4gg]	.
16c'	.	.	.
16B'	.	.	.
16A'JJ	.	.	.
16G'LL	4gg	[4gg	.
16F'	.	.	.
16E'	.	.	.
16D'JJ	.	.	.
=171	=171	=171	=171
16CLL	(4ccc	2gg]	.
16C'	.	.	.
16BB'	.	.	.
16AA'JJ	.	.	.
16GG'LL	8eee)	.	.
16FF'	.	.	.
16EE'	8r	.	.
16DD'JJ	.	.	.
!!LO:LB:g=z
=172	=172	=172	=172
16CC'' 16C''LL	4r	[2gg	ff
(32DL	.	.	.
32EJJJ	.	.	.
32FLLL	.	.	.
32G	.	.	.
32A	.	.	.
32BJJJ)	.	.	.
*clefG2	*	*	*
16c''LL	4ggg''	.	.
(32dL	.	.	.
32eJJJ	.	.	.
32fLLL	.	.	.
32g	.	.	.
32a	.	.	.
32bJJJ)	.	.	.
=173	=173	=173	=173
16cc'LL	(4.ggg	2gg_	.
16b'	.	.	.
16a'	.	.	.
16g'JJ	.	.	.
16f'LL	.	.	.
16e'	.	.	.
16d'	8eee	.	.
16c'JJ	.	.	.
*clefF4	*	*	*
=174	=174	=174	=174
16B'LL	4ddd)	4gg]	.
16c'	.	.	.
16B'	.	.	.
16A'JJ	.	.	.
16GLL	4gg	4gg	.
16F'	.	.	.
16E'	.	.	.
16D'JJ	.	.	.
*	*v	*v	*
=175	=175	=175
8C	8ccc	f
8GGG' 8GG'L	16r	.
.	16GLL	.
8EE-' 8E-'	16r	.
.	16e-	.
8DD' 8D'J	16r	.
.	16dJJ	.
!!LO:LB:g=z
=176	=176	=176
*k[b-e-a-]	*k[b-e-a-]	*k[b-e-a-]
*c:	*c:	*c:
8CC' 8C'L	16r	.
.	16cLL	.
8GGG' 8GG'	16r	.
.	16G	.
8AAAn' 8AAn'	16r	.
.	16An	.
8BBBn' 8BBn'J	16r	.
.	16BnJJ	.
=177	=177	=177
8CC' 8C'L	16r	.
.	16cLL	.
8CC' 8C'	16r	.
.	16c	.
8AA-' 8A-'	16r	.
.	16a-	.
8GG' 8G'J	16r	.
.	16gJJ	.
=178	=178	=178
8FF' 8F'L	16r	.
.	16fLL	.
8CC' 8C'	16r	.
.	16c	.
8DD' 8D'	16r	.
.	16d	.
8EEn' 8En'J	16r	.
.	16enJJ	.
=179	=179	=179
8FF' 8F'L	16r	.
.	16fLL	.
8FF' 8F'J	16r	.
.	16fJJ	.
8D-' 8d-'L	16r	.
.	16dd-LL	.
8C' 8c'J	16r	.
.	16ccJJ	.
=180	=180	=180
8BB-' 8B-'L	16r	.
.	16b-LL	.
8AA-' 8A-'	16r	.
.	16a-	.
8GG' 8G'	16r	.
.	16g	.
8FF' 8F'J	16r	.
.	16fJJ	.
!!LO:LB:g=z
=181	=181	=181
8EE-' 8E-'L	16r	.
.	16e-LL	.
8D-'	16r	.
.	16e-JJ	.
8C'	16r	.
.	16E- 16G 16e-LL	.
8BB-'J	16r	.
.	16F 16A- 16e-JJ	.
=182	=182	=182
8AA-'L	16r	.
.	16G 16B- 16e-LL	.
8GG'	16r	.
.	16A- 16c 16e-JJ	.
8FF'	16r	.
.	16B- 16d- 16e-LL	.
8EE-'J	16r	.
.	16G 16B- 16e-JJ	.
=183	=183	=183
8AA-	8c	.
24BBBnLL	8G' 8g'L	.
24AAAn	.	.
24BBBJJ	.	.
24CCLL	8e-' 8ee-'	.
24EE-	.	.
24FFJJ	.	.
24GGLL	8d' 8dd'J	.
24AAn	.	.
24BBnJJ	.	.
=184	=184	=184
24CLL	8c' 8cc'L	.
24D	.	.
24E-JJ	.	.
24FLL	8G' 8g'	.
24E-	.	.
24DJJ	.	.
24CLL	8An' 8an'	.
24D	.	.
24E-JJ	.	.
24FLL	8Bn' 8bn'J	.
24E-	.	.
24DJJ	.	.
!!LO:LB:g=z
=185	=185	=185
8C	8c' 8cc'L	.
24EEnLL	8c' 8cc'J	.
24DD	.	.
24EEJJ	.	.
24FFLL	8a-' 8aa-'L	.
24AA-	.	.
24BB-JJ	.	.
24CLL	8g' 8gg'J	.
24D	.	.
24EnJJ	.	.
=186	=186	=186
24FLL	8f' 8ff'L	.
24G	.	.
24A-JJ	.	.
24B-LL	8c' 8cc'	.
24A-	.	.
24GJJ	.	.
24FLL	8d' 8dd'	.
24G	.	.
24A-JJ	.	.
24B-LL	8en' 8een'J	.
24A-	.	.
24GJJ	.	.
=187	=187	=187
8F	8f' 8ff'L	.
24AAnLL	8f' 8ff'J	.
24GG	.	.
24AAJJ	.	.
24BB-LL	8dd-' 8ddd-'L	.
24C	.	.
24BB-JJ	.	.
24AALL	8cc' 8ccc'J	.
24GG	.	.
24AAJJ	.	.
=188	=188	=188
24BB-LL	8b-' 8bb-'L	.
24AA-	.	.
24BB-JJ	.	.
24CLL	8a-' 8aa-'	.
24BBn	.	.
24CJJ	.	.
24D-LL	8g' 8gg'	.
24C	.	.
24D-JJ	.	.
24DnLL	8f' 8ff'J	.
24C	.	.
24DJJ	.	.
!!LO:LB:g=z
=189	=189	=189
24E-LL	8e-' 8ee-'L	.
24F	.	.
24E-JJ	.	.
24D-LL	8e-' 8ee-'	.
24E-	.	.
24D-JJ	.	.
24CLL	8e-' 8g' 8ee-'	.
24D-	.	.
24CJJ	.	.
24BB-LL	8f' 8a-' 8ee-'J	.
24C	.	.
24BB-JJ	.	.
=190	=190	=190
24AA-LL	8g' 8b-' 8ee-'L	.
24BB-	.	.
24AA-JJ	.	.
24GGLL	8a-' 8cc' 8ee-'	.
24AA-	.	.
24GGJJ	.	.
24FFLL	8b-' 8dd-' 8ee-'	.
24GG	.	.
24FFJJ	.	.
24EE-LL	8g' 8b-' 8ee-'J	.
24FF	.	.
24EE-JJ	.	.
=191	=191	=191
8AA-'	8a-' 8cc'	.
8EE-' 8E-'L	24gLL	.
.	24f	.
.	24gJJ	.
8C' 8c'	24a-LL	.
.	24cc	.
.	24dd-JJ	.
8BB-' 8B-'J	24ee-LL	.
.	24ff	.
.	24ggJJ	.
=192	=192	=192
8AA-' 8A-'L	24aa-LL	.
.	24bb-	.
.	24cccJJ	.
8EE-' 8E-'	24ddd-LL	.
.	24ccc	.
.	24bb-JJ	.
8FF' 8F'	24ddd-LL	.
.	24ccc	.
.	24bb-JJ	.
8GG' 8G'J	24ddd-LL	.
.	24ccc	.
.	24bb-JJ	.
!!LO:LB:g=z
=193	=193	=193
8AA-' 8A-'	8aa-'	.
8CC' 8C'L	24enLL	.
.	24d	.
.	24eJJ	.
8AA-' 8A-'	24fLL	.
.	24a-	.
.	24b-JJ	.
8GG' 8G'J	24ccLL	.
.	24dd	.
.	24eenJJ	.
=194	=194	=194
8FF' 8F'L	24ffLL	.
.	24gg	.
.	24aa-JJ	.
8CC' 8C'	24bb-LL	.
.	24aa-	.
.	24ggJJ	.
8DD' 8D'	24bb-LL	.
.	24aa-	.
.	24ggJJ	.
8EEn' 8En'J	24bb-LL	.
.	24aa-	.
.	24ggJJ	.
=195	=195	=195
8FF' 8F'L	24aa-LL	.
.	24bb-	.
.	24aa-JJ	.
8F' 8f'	24ggLL	.
.	24aa-	.
.	24ggJJ	.
8A-' 8a-'	24ffLL	.
.	24gg	.
.	24ff'JJ	.
8G' 8g'J	24ee-LL	.
.	24ff	.
.	24ee-JJ	.
=196	=196	=196
8F' 8f'L	24ddLL	.
.	24ee-	.
.	24ddJJ	.
8E-' 8e-'	24ee-LL	.
.	24ff	.
.	24ee-JJ	.
8D' 8d'	24ffLL	.
.	24gg	.
.	24ffJJ	.
8C' 8c'J	24ff#LL	.
.	24gg	.
.	24ff#JJ	.
!!LO:LB:g=z
=197	=197	=197
4BBn 4Bn	24ggLL	.
.	24aa-	.
.	24ggJJ	.
.	24ff#LL	.
.	24gg	.
.	24ff#JJ	.
8GG' 8G'L	24ggLL	.
.	24aa-	.
.	24ggJJ	.
8GG' 8G'J	24ff#LL	.
.	24gg	.
.	24ff#JJ	.
=198	=198	=198
8GG' 8G'L	24ggLL	.
.	24aa-	.
.	24ggJJ	.
8GG' 8G'	24ffnLL	.
.	24gg	.
.	24ffJJ	.
8GG' 8G'	24ee-LL	.
.	24ff	.
.	24ee-JJ	.
8GG' 8G'J	24ddLL	.
.	24ee-	.
.	24ddJJ	.
=199	=199	=199
8C' 8c'	8cc'	.
24GGLL	8e-' 8ee-'L	.
24FF	.	.
24GGJJ	.	.
24AA-LL	8cc' 8ccc'	.
24C	.	.
24D-JJ	.	.
24E-LL	8b-' 8bb-'J	.
24F	.	.
24GJJ	.	.
=200	=200	=200
24A-LL	8a- 8aa-L	.
24B-	.	.
24cJJ	.	.
24d-LL	8e-' 8ee-'	.
24c	.	.
24B-JJ	.	.
24A-LL	8f' 8ff'	.
24B-	.	.
24cJJ	.	.
24d-LL	8g' 8gg'J	.
24c	.	.
24B-JJ	.	.
!!LO:LB:g=z
=201	=201	=201
8A-'	8a-' 8aa-'	.
24EEnLL	8c' 8cc'L	.
24DD	.	.
24EEJJ	.	.
24FFLL	8a-' 8aa-'	.
24AA-	.	.
24BB-JJ	.	.
24CLL	8g' 8gg'J	.
24D	.	.
24EnJJ	.	.
=202	=202	=202
24FLL	8f' 8ff'L	.
24G	.	.
24A-JJ	.	.
24B-LL	8c' 8cc'	.
24A-	.	.
24GJJ	.	.
24FLL	8d' 8dd'	.
24G	.	.
24A-JJ	.	.
24B-LL	8en' 8een'J	.
24A-	.	.
24GJJ	.	.
=203	=203	=203
8F'	8f' 8ff'	.
24CCLL	8ff' 8fff'L	.
24DD	.	.
24EEnJJ	.	.
24FFLL	8aa-' 8aaa-'	.
24EE	.	.
24FFJJ	.	.
24GGLL	8gg' 8ggg'J	.
24FF	.	.
24GGJJ	.	.
=204	=204	=204
24AA-LL	8ff' 8fff'L	.
24BB-	.	.
24AA-JJ	.	.
24GGLL	8ee-' 8eee-'	.
24AA-	.	.
24GGJJ	.	.
24FFLL	8dd' 8ddd'	.
24GG	.	.
24FFJJ	.	.
24FF#LL	8cc' 8ccc'J	.
24GG	.	.
24FF#JJ	.	.
!!LO:LB:g=z
=205	=205	=205
24GGLL	4bn 4bbn	.
24AA-	.	.
24GGJJ	.	.
24FF#LL	.	.
24GG	.	.
24FF#JJ	.	.
24GGLL	8g 8ggL	.
24AA-	.	.
24GGJJ	.	.
24FF#LL	8g 8ggJ	.
24GG	.	.
24FF#JJ	.	.
=206	=206	=206
24GGLL	8g' 8gg'L	.
24AA-	.	.
24GGJJ	.	.
24FFnLL	8g' 8gg'	.
24GG	.	.
24FFJJ	.	.
24EE-LL	8g' 8gg'	.
24FF	.	.
24EE-JJ	.	.
24DDLL	8g' 8gg'J	.
24EE-	.	.
24DDJJ	.	.
=207	=207	=207
8CC'	8cc 8ccc	.
8FF' 8F'L	24ccLL	.
.	24dd	.
.	24eenJJ	.
8AA-' 8A-'	24ffLL	.
.	24ee	.
.	24ffJJ	.
8GG' 8G'J	24ggLL	.
.	24ff	.
.	24ggJJ	.
=208	=208	=208
8FF' 8F'L	24aa-LL	.
.	24bb-	.
.	24aa-JJ	.
8EE-' 8E-'	24ggLL	.
.	24aa-	.
.	24ggJJ	.
8DD' 8D'	24ffLL	.
.	24gg	.
.	24ffJJ	.
8CC' 8C'J	24ff#LL	.
.	24gg	.
.	24ff#JJ	.
!!LO:LB:g=z
=209	=209	=209
4BBBn 4BBn	24ggLL	.
.	24aa-	.
.	24ggJJ	.
.	24ff#LL	.
.	24gg	.
.	24ff#JJ	.
8GGG' 8GG'L	24ggLL	.
.	24aa-	.
.	24ggJJ	.
8GGG' 8GG'J	24ff#LL	.
.	24gg	.
.	24ff#JJ	.
=210	=210	=210
8GGG' 8GG'L	24ggLL	.
.	24aa-	.
.	24ggJJ	.
8GGG' 8GG'	24ffnLL	.
.	24gg	.
.	24ffJJ	.
8GGG' 8GG'	24ee-LL	.
.	24ff	.
.	24ee-JJ	.
8GGG' 8GG'J	24ddLL	.
.	24ee-	.
.	24ddJJ	.
=211	=211	=211
8CC' 8C'	24ccLL	.
.	24bn	.
.	24ccJJ	.
8r	24ddLL	.
.	24cc	.
.	24ddJJ	.
8GG' 8G'L	24ee-LL	.
.	24dd	.
.	24ee-JJ	.
8GG' 8G'J	24ffLL	.
.	24ee-	.
.	24ffJJ	.
=212	=212	=212
8GG' 8G'L	24ggLL	.
.	24aa-	.
.	24ggJJ	.
8GG' 8G'	24ffLL	.
.	24gg	.
.	24ffJJ	.
8GG' 8G'	24ee-LL	.
.	24ff	.
.	24ee-JJ	.
8GG' 8G'J	24ddLL	.
.	24ee-	.
.	24ddJJ	.
!!LO:LB:g=z
=213	=213	=213
8C' 8c'	24ccLL	.
.	24bn	.
.	24ccJJ	.
8r	24ddLL	.
.	24cc	.
.	24ddJJ	.
8GGG' 8GG'L	24ee-LL	ff
.	24dd	.
.	24ee-JJ	.
8GGG' 8GG'J	24ffLL	.
.	24ee-	.
.	24ffJJ	.
=214	=214	=214
8GGG' 8GG'L	24ggLL	.
.	24aa-	.
.	24ggJJ	.
8GGG' 8GG'	24ffLL	.
.	24gg	.
.	24ffJJ	.
8GGG' 8GG'	24ee-LL	.
.	24ff	.
.	24ee-JJ	.
8GGG' 8GG'J	24ddLL	.
.	24ee-	.
.	24ddJJ	.
=215	=215	=215
8CC' 8C'	24ccLL	.
.	24bn	.
.	24ccJJ	.
8r	24ddLL	.
.	24ee-	.
.	24ffJJ	.
8GGG' 8GG'	24ggLL	.
.	24aa-	.
.	24ggJJ	.
8r	24ffLL	.
.	24ee-	.
.	24ddJJ	.
=216	=216	=216
8CC' 8C'	24ccLL	.
.	24bn	.
.	24ccJJ	.
8r	24ddLL	.
.	24ee-	.
.	24ffJJ	.
8GGG' 8GG'	24ggLL	.
.	24aa-	.
.	24ggJJ	.
8r	24ffLL	.
.	24ee-	.
.	24ddJJ	.
!!LO:LB:g=z
=217	=217	=217
8CC' 8C'	8c' 8cc'	ff
8r	8r	.
8CC' 8C'	8c' 8cc'	.
8r	8r	.
=218	=218	=218
8CC' 8C'	8c' 8cc'	>
8r	8r	.
4r	4r	.
=219	=219	=219
4CC 4C	4c 4cc	.
4r	4r	.
=220	=220	=220
4CC 4C	4c 4cc	p
4r	4r	.
=221	=221	=221
8AAA- 8AA-	8A-	ff
8r	8r	.
4AA-'' 4C'' 4E-'' 4A-''	4e-'' 4a-'' 4cc'' 4ee-''	.
*clefG2	*	*
=222	=222	=222
4.A- 4.c 4.e- 4.a-	4.ee- 4.aa- 4.ccc 4.eee-	>
8A- 8c 8e- 8a-	8ee- 8ccc	.
=223	=223	=223
4A- 4B- 4d- 4e- 4g	4dd-' (4bb-'	p
4A- 4B- 4d- 4e- 4g	4dd-' 4ee-')	.
=224	=224	=224
4A- 4c 4e- 4a-	4cc 4aa-	.
4r	4r	.
*clefF4	*clefF4	*clefF4
!!LO:LB:g=z
=225	=225	=225
8FFF 8FF	8F	ff
8r	8r	.
*	*clefG2	*clefG2
4FF'' 4AA-'' 4C'' 4F''	4c'' 4f'' 4a-'' 4cc''	.
=226	=226	=226
4.F 4.A- 4.c 4.f	4.cc 4.ff 4.aa- 4.ccc	>
8F 8A- 8c 8f	8cc	.
=227	=227	=227
4F 4G 4B- 4c 4en	4b-' (4gg'	p
4F 4G 4B- 4c 4e	4b-' 4cc')	.
=228	=228	=228
4F 4A- 4c 4f	4a- 4ff	.
4r	4r	.
=229	=229	=229
8DD- 8D-	8d-	ff
8r	8r	.
4D-'' 4F'' 4A-'' 4d-''	4a-'' 4dd-'' 4ff'' 4aa-''	.
*clefG2	*	*
=230	=230	=230
4.d- 4.f 4.a- 4.dd-	4.aa- 4.ddd- 4.fff 4.aaa-	>
8d- 8f 8a- 8dd-	8aa- 8fff	.
=231	=231	=231
4d- 4e- 4g- 4a- 4cc	4gg-' (4eee-'	p
4d- 4e- 4g- 4a- 4cc	4gg-' 4aa-')	.
=232	=232	=232
4.d- 4.f 4.a- 4.dd-	4.ff 4.ddd-	.
*clefF4	*	*
8D- 8A- 8d-	8a- 8ff	.
!!LO:LB:g=z
=233	=233	=233
4D- 4A- 4c	4g-' (4ee-'	>
4D- 4A- 4c	4g- 4a-)	.
=234	=234	=234
4.D- 4.A- 4.d-	4.f 4.dd-	.
*	*clefF4	*clefF4
8DD- 8AA- 8D-	8A- 8f	.
=235	=235	=235
4DD- 4AA- 4C	4G-' (4e-'	pp
4DD- 4AA- 4C	4G-' 4A-')	.
=236	=236	=236
4DD- 4AA- 4D-	4F' (4d-'	.
4DD- 4AA- 4D-	4F' 4A-')	.
=237	=237	=237
4DD- 4AA- 4C	4G-' 4e-'	.
4DD- 4AA- 4C	4G-' 4A-'	.
=238	=238	=238
4DD- 4AA- 4C	4G-' (4e-'	.
4DD- 4AA- 4C	4G-' 4A-')	.
=239	=239	=239
8DD- 8AA- 8D-	8F 8d-	.
*	*clefG2	*clefG2
8r	4A- 4d- 4f	.
4D-	.	.
.	[8A- [8d- [8f	.
=240	=240	=240
4D-	8A-] 8d-] 8f]	.
.	4A- 4d- 4f	.
4D-	.	.
.	[8A- 8d- (8f	.
!!LO:LB:g=z
=241	=241	=241
4AA-	8A-] 8d- 8e-)	<
.	4A- 4c 4e-	.
4AA-	.	.
.	[8A- 8c [8e-	.
=242	=242	=242
4AA-	8A-] 8c- 8e-]	.
.	4c- (4e-	.
4AA-	.	.
.	8A- 8c- 8dn 8f	.
=243	=243	=243
4EE-	8G- 8B- 8e- 8g-)	.
.	4B- 4e- 4g-	p
4E-'	.	.
.	[8B- [8e- [8g-	.
=244	=244	=244
4E-'	8B-] 8e-] 8g-]	.
.	4B- 4e- 4g-	.
4E-'	.	.
.	[8B- [8e- (8g-	.
=245	=245	=245
4BB-'	8B-] 8e-] 8f)	.
.	4B- 4f	.
4BB-'	.	.
.	[8B- (8d [8f	.
=246	=246	=246
4BB-'	8B-] 8d-) 8f]	.
.	4B- 4d- (4f	.
4BB-'	.	.
.	8B- 8d- 8en 8gn	.
=247	=247	=247
4FF'	8A- 8c 8f 8a-)	.
.	4c 4f 4a-	p
4F'	.	.
.	[8c [8f [8a-	.
!!LO:LB:g=z
=248	=248	=248
4F'	8c] 8f] 8a-]	.
.	4c 4f 4a-	.
4F'	.	.
.	[8c [8f (8a-	.
=249	=249	=249
4C'	8c] 8f] 8g)	.
.	4c 4en 4g	.
4C'	.	.
.	[8c 8e (8g	.
=250	=250	=250
4F'	8c] 8f 8a-)	.
.	4c 4f 4a-	.
4F'	.	.
.	8c 8f 8a-	.
=251	=251	=251
8CC	16r	.
.	16cLL	pp
8r	16en	.
.	16gJJ	.
4En' 4G'	16bnLL	.
.	16cc	.
.	16een	.
.	16ggJJ	.
=252	=252	=252
2En 2G	16bbnLL	.
.	16ccc	.
.	16gg	.
.	16eenJJ	.
.	16ccLL	.
.	16g	.
.	16en	.
.	16cJJ	.
=253	=253	=253
8CC	16r	.
.	16d-LL	.
8r	16f	.
.	16a-JJ	.
4F' 4A-'	16ccLL	.
.	16dd-	.
.	16ff	.
.	16aa-JJ	.
!!LO:LB:g=z
=254	=254	=254
2F 2A-	16cccLL	.
.	16ddd-	.
.	16aa-	.
.	16ffJJ	.
.	16dd-LL	.
.	16a-	.
.	16f	.
.	16d-JJ	.
=255	=255	=255
8CC	16r	.
.	16enLL	.
8r	16g	.
.	16b-JJ	.
4G' 4B-'	16dd#LL	.
.	16een	.
.	16gg	.
.	16bb-JJ	.
=256	=256	=256
2G 2B-	16ddd#LL	.
.	16eeen	.
.	16bb-'	.
.	16ggJJ	.
.	16eenLL	.
.	16b-	.
.	16g	.
.	16enJJ	.
=257	=257	=257
8FF	16r	.
.	16fLL	.
8r	16an	.
.	16ccJJ	.
4An' 4c'	16eenLL	.
.	16ff	.
.	16aan	.
.	16cccJJ	.
=258	=258	=258
2An 2c	16eeenLL	.
.	16fff	.
.	16ccc	.
.	16aanJJ	.
.	16ffLL	.
.	16cc	.
.	16an	.
.	16fJJ	.
!!LO:LB:g=z
=259	=259	=259
8FF	16r	.
.	16g-LL	.
8r	16b-	.
.	16dd-JJ	.
4B-' 4d-'	16ffLL	.
.	16gg-	.
.	16bb-	.
.	16ddd-JJ	.
=260	=260	=260
2B- 2d-	16fffLL	.
.	16ggg-	.
.	16ddd-	.
.	16bb-JJ	.
.	16gg-LL	.
.	16dd-	.
.	16b-	.
.	16g-JJ	.
=261	=261	=261
8FF	16r	.
.	16anLL	.
8r	16cc	.
.	16ee-JJ	.
4c' 4e-'	16gg#LL	.
.	16aan	.
.	16ccc	.
.	16eee-JJ	.
=262	=262	=262
2c 2e-	16ggg#LL	.
.	16aaan	.
.	16eee-	.
.	16cccJJ	.
.	16aanLL	.
.	16ee-	.
.	16cc	.
.	16anJJ	.
=263	=263	=263
8BB-	16r	.
.	16b-LL	pp
8r	16ddn	.
.	16ffJJ	.
4dn' 4f'	16aanLL	.
.	16bb-	.
.	16ff	.
.	16ddJJ	.
!!LO:LB:g=z
=264	=264	=264
2d 2f	16b-LL	.
.	16dd	.
.	16ff	.
.	16aanJJ	.
.	16bb-LL	.
.	16ff	.
.	16dd	.
.	16b-JJ	.
=265	=265	=265
8BB-	16r	.
.	16cc-LL	.
8r	16ee-	.
.	16gg-JJ	.
*clefG2	*	*
4e-' 4g-'	16bb-LL	.
.	16ccc-	.
.	16gg-	.
.	16ee-JJ	.
=266	=266	=266
2e- 2g-	16cc-LL	.
.	16ee-	.
.	16gg-	.
.	16bb-JJ	.
.	16ccc-LL	.
.	16gg-	.
.	16ee-	.
.	16cc-JJ	.
*clefF4	*	*
=267	=267	=267
8BB-	16r	.
.	16ddnLL	.
8r	16ff	.
.	16aa-JJ	.
*clefG2	*	*
4f' 4a-'	16ccc#LL	.
.	16ddd	.
.	16aa-	.
.	16ffJJ	.
=268	=268	=268
2f 2a-	16ddLL	.
.	16ff	.
.	16aa-	.
.	16ccc#JJ	.
.	16dddLL	.
.	16aa-	.
.	16ff	.
.	16ddJJ	.
*clefF4	*	*
!!LO:LB:g=z
=269	=269	=269
8E-	16r	.
.	(16gg-LL	pp
8r	16ff	.
.	16gg-JJ)	.
*clefG2	*	*
4B-' 4e-' 4g-'	16r	.
.	(16bb-LL	.
.	16aan	.
.	16bb-JJ)	.
=270	=270	=270
2B- 2e- 2g-	16r	.
.	16eee-LL	.
.	16ddd	.
.	16eee-JJ	.
.	16ggg-LL	.
.	16eee-	.
.	16ggg-	.
.	16eee-JJ	.
*clefF4	*	*
=271	=271	=271
8C	16ggg-LL	.
.	16fff	.
8r	16eee-	.
.	16ddd-JJ	.
*clefG2	*	*
4A-' 4e-' 4g-'	16cccLL	.
.	16ddd-	.
.	16eee-	.
.	16fffJJ	.
=272	=272	=272
2A- 2e- 2g-	16ggg-LL	.
.	16fff	.
.	16eee-	.
.	16ddd-JJ	.
.	16cccLL	.
.	16bb-	.
.	16aa-	.
.	16gg-JJ	.
*clefF4	*	*
=273	=273	=273
8D-	16r	.
.	(16ffLL	pp
8r	16een	.
.	16ffJJ)	.
*clefG2	*	*
4A-' 4d-' 4f'	16r	.
.	(16aa-LL	.
.	16ggn	.
.	16aa-JJ)	.
!!LO:LB:g=z
=274	=274	=274
2A- 2d- 2f	16r	.
.	16ddd-LL	.
.	16ccc	.
.	16ddd-JJ	.
.	16fffLL	.
.	16ddd-	.
.	16fff	.
.	16ddd-JJ	.
*clefF4	*	*
=275	=275	=275
8BBn	16fffLL	.
.	16eee-	.
8r	16dddn	.
.	16cccJJ	.
4G' 4dn' 4f'	16bbnLL	.
.	16ccc	.
.	16ddd	.
.	16eee-JJ	.
=276	=276	=276
2G 2d 2f	16fffLL	.
.	16eee-	.
.	16ddd	.
.	16cccJJ	.
.	16bbnLL	.
.	16aa-	.
.	16gg	.
.	16ffJJ	.
=277	=277	=277
8C	16r	.
.	(16ee-LL	pp
8r	16dd	.
.	16ee-JJ)	.
4G 4c 4e-	16r	.
.	(16ggLL	.
.	16ff#	.
.	16ggJJ)	.
=278	=278	=278
4G 4c 4e-	16r	.
.	16bbnLL	.
.	16ccc	.
.	16bbJJ	.
4C	16cccLL	.
.	16ddd	.
.	16eee-	.
.	16fff#JJ	.
!!LO:LB:g=z
=279	=279	=279
4GG	16gggLL	.
.	16ddd	.
.	16bbn	.
.	16ggJJ	.
4G 4Bn 4d	16ff#LL	.
.	16gg	.
.	16bb	.
.	16dddJJ	.
=280	=280	=280
4C	16eee-LL	.
.	16ccc	.
.	16gg	.
.	16ee-JJ	.
4G 4c 4e-	16cccLL	.
.	16gg	.
.	16ee-	.
.	16ccJJ	.
=281	=281	=281
4GG	16bbnLL	.
.	16gg	.
.	16dd	.
.	16bnJJ	.
4D 4G 4Bn	16ggLL	.
.	16dd	.
.	16b	.
.	16gJJ	.
=282	=282	=282
4CC	16ee-LL	.
.	16cc	.
.	16g	.
.	16e-JJ	.
4C 4E- 4G	16ccLL	.
.	16g	.
.	16e-	.
.	16cJJ	.
=283	=283	=283
4GGG	16bnLL	.
.	16g	.
.	16d	.
.	16BnJJ	.
4BBn 4D 4G	16dLL	.
.	16f	.
.	16b	.
.	16ddJJ	.
!!LO:LB:g=z
=284	=284	=284
4CC	16ccLL	.
.	16g	.
.	16e-	.
.	16cJJ	.
4GG 4C 4E-	16gLL	.
.	16e-	.
.	16c	.
.	16GJJ	.
=285	=285	=285
8GGG 8GG	16gLL	f
.	16d	.
8r	16Bn	.
.	16GJJ	.
16BBnLL	16BLL	.
16D	16d	.
16BB	16B	.
16GGJJ	16GJJ	.
*	*clefF4	*clefF4
=286	=286	=286
16CLL	16cLL	>
16GG	16G	.
16EE-	16E-	.
16GGJJ	16GJJ	.
16EE-LL	16E-LL	.
16GG	16G	.
16EE-	16E-	.
16CCJJ	16CJJ	.
=287	=287	=287
8GGG	16r	.
.	(16GLL	pp
8r	16D	.
.	16BBnJJ)	.
(4A-'	16r	.
.	(16GLL	.
.	16D	.
.	16BBJJ)	.
=288	=288	=288
4A-'	16r	.
.	16GLL	.
.	16D	.
.	16BBnJJ	.
4A-')	16r	.
.	16GLL	.
.	16D	.
.	16BBJJ	.
!!LO:LB:g=z
=289	=289	=289
8CC	16r	.
.	(16AnLL	.
8r	16E-	.
.	16CJJ)	.
(4F#'	16r	.
.	(16ALL	.
.	16E-	.
.	16CJJ)	.
=290	=290	=290
4F#'	16r	.
.	16AnLL	.
.	16E-	.
.	16CJJ	.
4F#')	16r	.
.	16ALL	.
.	16E-	.
.	16CJJ	.
=291	=291	=291
8GGG	16r	.
.	(16GLL	f
8r	16D	.
.	16BBnJJ)	.
(4A-'	16r	.
.	(16GLL	.
.	16D)	.
.	16BBJJ	.
=292	=292	=292
4A-'	16r	.
.	16GLL	.
.	16D	.
.	16BBnJJ	.
4A-')	16r	.
.	16GLL	.
.	16D	.
.	16BBJJ	.
=293	=293	=293
8CC	16r	.
.	(16AnLL	.
8r	16E-	.
.	16CJJ)	.
(4F#'	16r	.
.	(16ALL	.
.	16E-	.
.	16CJJ)	.
=294	=294	=294
4F#'	16r	.
.	16AnLL	.
.	16E-	.
.	16CJJ	.
4F#')	16r	.
.	16ALL	.
.	16E-	.
.	16CJJ	.
!!LO:LB:g=z
=295	=295	=295
8GGG	16GLL	f
.	16D	.
8r	16BBn	.
.	16DJJ	.
4Bn''	16GLL	.
.	16D	.
.	16BB	.
.	16DJJ	.
=296	=296	=296
2Bn	16GLL	.
.	16D	.
.	16BBn	.
.	16DJJ	.
.	16GLL	.
.	16D	.
.	16BB	.
.	16DJJ	.
=297	=297	=297
8GGG	16BnLL	.
.	16G	.
8r	16D	.
.	16GJJ	.
4d''	16BLL	.
.	16G	.
.	16D	.
.	16GJJ	.
=298	=298	=298
2d	16BnLL	.
.	16G	.
.	16D	.
.	16GJJ	.
.	16BLL	.
.	16G	.
.	16D	.
.	16GJJ	.
=299	=299	=299
8GGG	16dLL	.
.	16Bn	.
8r	16G	.
.	16BJJ	.
4f''	16dLL	.
.	16B	.
.	16G	.
.	16BJJ	.
=300	=300	=300
2f	16dLL	.
.	16Bn	.
.	16G	.
.	16BJJ	.
.	16dLL	.
.	16B	.
.	16G	.
.	16BJJ	.
*	*clefG2	*clefG2
!!LO:LB:g=z
=301	=301	=301
4r	16fLL	>
.	16Bn 16d	.
.	16G	.
.	16B 16dJJ	.
*clefG2	*	*
4bn	16fLL	.
.	16B 16d	.
.	16G	.
.	16B 16dJJ	.
=302	=302	=302
4r	16fLL	.
.	16Bn 16d	.
.	16G	.
.	16B 16dJJ	.
4dd	16fLL	.
.	16B 16d	.
.	16G	.
.	16B 16dJJ	.
=303	=303	=303
4r	16fLL	p
.	16Bn 16d	.
.	16G	.
.	16B 16dJJ	.
4ff	16fLL	.
.	16B 16d	.
.	16G	.
.	16B 16dJJ	.
=304	=304	=304
4r	16fLL	>
.	16Bn 16d	.
.	16G	.
.	16B 16dJJ	.
4ff	16fLL	.
.	16B 16d	.
.	16G	.
.	16B 16dJJ	.
=305	=305	=305
4ff	16fLL	pp
.	16Bn 16d	.
.	16G	.
.	16B 16dJJ	.
*clefF4	*	*
(4AAA- 4AA-	16fLL	.
.	16B 16d	.
.	16G	.
.	16B 16dJJ	.
!!LO:LB:g=z
=306	=306	=306
8GGG) 8GG	16fLL	.
.	16Bn 16d	.
8r	16G	.
.	16B 16dJJ	.
*clefG2	*	*
4ff	16fLL	.
.	16B 16d	.
.	16G	.
.	16B 16dJJ	.
=307	=307	=307
4ff	16fLL	.
.	16Bn 16d	.
.	16G	.
.	16B 16dJJ	.
*clefF4	*	*
(4AAA- 4AA-	16fLL	.
.	16B 16d	.
.	16G	.
.	16B 16dJJ	.
=308	=308	=308
8GGG) 8GG	16fLL	.
.	16Bn 16d	.
8r	16G	.
.	16B 16dJJ	.
*clefG2	*	*
4ff	16fLL	pp
.	16B 16d	.
.	16G	.
.	16B 16dJJ	.
=309	=309	=309
4r	16fLL	.
.	16Bn 16d	.
.	16G	.
.	16B 16dJJ	.
4ff	16fLL	.
.	16B 16d	.
.	16G	.
.	16B 16dJJ	.
*clefF4	*	*
=310	=310	=310
4r	16fLL	.
.	16Bn 16d	.
.	16G	.
.	16B 16dJJ	.
4A-	16fLL	.
.	16B 16d	.
.	16G	.
.	16B 16dJJ	.
!!LO:LB:g=z
=311	=311	=311
4r	16fLL	.
.	16Bn 16d	.
.	16G	.
.	16B 16dJJ	.
4GG	16fLL	.
.	16B 16d	.
.	16G	.
.	16B 16dJJ	.
=312	=312	=312
4r	16fLL	.
.	16Bn 16d	.
.	16G	.
.	16B 16dJJ	.
8GGG 8GGL	16B 16bnLL	f
.	16d 16f	.
8GGG 8GGJ	16B 16b	.
.	16d 16fJJ	.
=313	=313	=313
*k[]	*k[]	*k[]
*C:	*C:	*C:
16CC 16C	8c 8e 8cc	ff
16GGLL	.	.
16C	8r	.
16EJJ	.	.
16GLL	4gg'' 4ggg''	.
16C	.	.
16E	.	.
16GJJ	.	.
=314	=314	=314
16cLL	4.gg (4.ggg	.
16E	.	.
16G	.	.
16cJJ	.	.
16eLL	.	.
16G	.	.
16c	8ee 8eee	.
16eJJ	.	.
=315	=315	=315
16fLL	4dd 4ddd	.
16e	.	.
16d	.	.
16cJJ	.	.
16BLL	4g 4gg	.
16A	.	.
16G	.	.
16FJJ	.	.
!!LO:LB:g=z
=316	=316	=316
16ELL	4cc 4ccc	.
16G	.	.
16C	.	.
16EJJ	.	.
16GGLL	8ee 8eee)	.
16C	.	.
16EE	8r	.
16GGJJ	.	.
=317	=317	=317
16CC	4r	.
16GGLL	.	.
16C	.	.
16EJJ	.	.
16GLL	4gg'' 4ggg''	.
16C	.	.
16E	.	.
16GJJ	.	.
=318	=318	=318
16cLL	4.gg (4.ggg	.
16E	.	.
16G	.	.
16cJJ	.	.
16eLL	.	.
16G	.	.
16c	8ee 8eee	.
16eJJ	.	.
=319	=319	=319
16fLL	4dd 4ddd	.
16e	.	.
16d	.	.
16cJJ	.	.
16BLL	4g 4gg	.
16G	.	.
16A	.	.
16BJJ	.	.
=320	=320	=320
16c'LL	8cc 8ccc)	.
16B'	.	.
16A'	8r	.
16G'JJ	.	.
16F'LL	4r	.
16E'	.	.
16D'	.	.
16C'JJ	.	.
!!LO:LB:g=z
=321	=321	=321
16GGLL	4r	.
16BB	.	.
16D	.	.
16GJJ	.	.
16BBLL	4ff'' 4fff''	.
16D	.	.
16G	.	.
16BJJ	.	.
=322	=322	=322
16DLL	4.ff (4.fff	.
16G	.	.
16B	.	.
16dJJ	.	.
16GLL	.	.
16B	.	.
16d	8dd 8ddd	.
16gJJ	.	.
=323	=323	=323
16GLL	4ee 4eee	.
16c	.	.
16g	.	.
16cJJ	.	.
16GLL	4cc 4ccc	.
16e	.	.
16g	.	.
16eJJ	.	.
=324	=324	=324
16GLL	4b 4bb	.
16d	.	.
16g	.	.
16dJJ	.	.
16GLL	8dd 8ddd)	.
16B	.	.
16g	8r	.
16BJJ	.	.
=325	=325	=325
16GGLL	4r	.
16BB	.	.
16D	.	.
16GJJ	.	.
16BBLL	4ff'' 4fff''	.
16D	.	.
16G	.	.
16BJJ	.	.
!!LO:LB:g=z
=326	=326	=326
16DLL	4.ff (4.fff	.
16G	.	.
16B	.	.
16dJJ	.	.
16GLL	.	.
16B	.	.
16d	8dd 8ddd	.
16gJJ	.	.
=327	=327	=327
16GLL	4ee- 4eee-	.
16c	.	.
16g	.	.
16cJJ	.	.
16GLL	4cc 4ccc	.
16e-	.	.
16g	.	.
16e-JJ	.	.
=328	=328	=328
16GLL	4b 4bb	.
16d	.	.
16g	.	.
16dJJ	.	.
16GLL	4dd 4ddd)	.
16B	.	.
16g	.	.
16BJJ	.	.
=329	=329	=329
16GLL	4een (4eeen	<
16c	.	.
16g	.	.
16cJJ	.	.
16GLL	4cc 4ccc	.
16en	.	.
16g	.	.
16eJJ	.	.
=330	=330	=330
16GLL	4b 4bb	.
16d	.	.
16g	.	.
16dJJ	.	.
16GLL	4dd 4ddd	.
16B	.	.
16g	.	.
16BJJ	.	.
!!LO:LB:g=z
=331	=331	=331
16GLL	4ee- 4eee-	p
16c	.	.
16g	.	.
16cJJ	.	.
16GLL	4cc 4ccc)	>
16c	.	.
16e-	.	.
16cJJ	.	.
=332	=332	=332
16GLL	(4gg'	.
16B	.	.
16d	.	.
16BJJ	.	.
16GLL	4gg')	.
16c	.	.
16e-	.	.
16cJJ	.	.
=333	=333	=333
.	aanq	.
16G'LL	[2gg	<
(16B	.	.
16d	.	.
16BJJ)	.	.
16G'LL	.	.
(16c	.	.
16en	.	.
16cJJ)	.	.
=334	=334	=334
16G'LL	2gg_	.
(16B	.	.
16d	.	.
16BJJ)	.	.
16G'LL	.	.
(16A	.	.
16c	.	.
16AJJ)	.	.
=335	=335	=335
16G'LL	2gg_	.
(16B	.	.
16A	.	.
16GJJ)	.	.
16F'LL	.	.
(16A	.	.
16G	.	.
16FJJ)	.	.
!!LO:LB:g=z
=336	=336	=336
16E'LL	2gg]	ff
(16G	.	.
16F	.	.
16EJJ)	.	.
16D'LL	.	.
(16F	.	.
16E	.	.
16DJJ)	.	.
=337	=337	=337
*	*^	*
16CC 16CLL	4r	[2gg	.
(32DL	.	.	.
32EJJJ	.	.	.
32FLLL	.	.	.
32G	.	.	.
32A	.	.	.
32BJJJ)	.	.	.
*clefG2	*	*	*
16c''LL	4ggg''	.	.
(32dL	.	.	.
32eJJJ	.	.	.
32fLLL	.	.	.
32g	.	.	.
32a	.	.	.
32bJJJ)	.	.	.
=338	=338	=338	=338
16cc''LL	(4.ggg	2gg_	>
16b'	.	.	.
16a'	.	.	.
16g'JJ	.	.	.
16f'LL	.	.	.
16e'	.	.	.
16d'	8eee	.	.
16c'JJ	.	.	.
*clefF4	*	*	*
=339	=339	=339	=339
16B'LL	4ddd)	4gg]	.
16c'	.	.	.
16B'	.	.	.
16A'JJ	.	.	.
16G'LL	4gg	[4gg	.
16F'	.	.	.
16E'	.	.	.
16D'JJ	.	.	.
=340	=340	=340	=340
16C'LL	(4ccc	2gg]	.
16C'	.	.	.
16BB'	.	.	.
16AA'JJ	.	.	.
16GG'LL	8eee)	.	.
16FF'	.	.	.
16EE'	8r	.	.
16DD'JJ	.	.	.
!!LO:LB:g=z
=341	=341	=341	=341
16CC'' 16C''LL	4r	2gg	ff
(32DL	.	.	.
32EJJJ	.	.	.
32FLLL	.	.	.
32G	.	.	.
32A	.	.	.
32BJJJ)	.	.	.
*clefG2	*	*	*
16c''LL	4ggg	.	.
(32dL	.	.	.
32eJJJ	.	.	.
32fLLL	.	.	.
32g	.	.	.
32a	.	.	.
32bJJJ)	.	.	.
=342	=342	=342	=342
16cc''LL	(4.ggg	[2gg	>
16b'	.	.	.
16a'	.	.	.
16g'JJ	.	.	.
16f'LL	.	.	.
16e'	.	.	.
16d'	8eee	.	.
16c'JJ	.	.	.
*clefF4	*	*	*
=343	=343	=343	=343
16B'LL	4ddd)	4gg]	.
16c'	.	.	.
16B'	.	.	.
16A'JJ	.	.	.
16G'LL	4gg	4gg	.
16F'	.	.	.
16E'	.	.	.
16D'JJ	.	.	.
=344	=344	=344	=344
*^	*	*	*
8CL	4.r	8ccc	8ccc	.
8CCJ	.	4.r	8r	.
8r	.	.	24cLL	f
.	.	.	24e	.
.	.	.	24cJJ	.
24GLL	8CC' 8C'	.	8r	.
24E	.	.	.	.
24GJJ	.	.	.	.
*	*	*v	*v	*
=345	=345	=345	=345
8r	8r	24cLL	.
.	.	24f	.
.	.	24cJJ	.
24ALL	8CC' 8C'	8r	.
24F	.	.	.
24AJJ	.	.	.
8r	8r	24cLL	.
.	.	24e	.
.	.	24cJJ	.
24GLL	8CC' 8C'	8r	.
24E	.	.	.
24GJJ	.	.	.
!!LO:LB:g=z
=346	=346	=346	=346
8r	8r	24cLL	.
.	.	24d	.
.	.	24cJJ	.
24FLL	8CC' 8C'	8r	.
24D	.	.	.
24FJJ	.	.	.
8r	8r	24cLL	.
.	.	24d#	.
.	.	24cJJ	.
24F#LL	8CC' 8C'	8r	.
24D#	.	.	.
24F#JJ	.	.	.
=347	=347	=347	=347
8r	8r	24cLL	.
.	.	24e	.
.	.	24cJJ	.
24GLL	8CC' 8C'	8r	.
24E	.	.	.
24GJJ	.	.	.
24BLL	8r	8r	.
24d	.	.	.
24BJJ	.	.	.
24FnLL	8CC 8C	8r	.
24Dn	.	.	.
24FJJ	.	.	.
=348	=348	=348	=348
24GLL	8r	4r	.
24c	.	.	.
24GJJ	.	.	.
24ELL	8CC' 8C'	.	.
24C	.	.	.
24EJJ	.	.	.
8r	4r	24eLL	.
.	.	24g	.
.	.	24eJJ	.
8EE' 8C' 8E'	.	24cLL	.
.	.	24G	.
.	.	24cJJ	.
*v	*v	*	*
=349	=349	=349
8r	24fLL	.
.	24a	.
.	24fJJ	.
8FF' 8C' 8F'	24cLL	.
.	24A	.
.	24cJJ	.
8r	24eLL	.
.	24g	.
.	24eJJ	.
8EE' 8C' 8E'	24cLL	.
.	24G	.
.	24cJJ	.
!!LO:LB:g=z
=350	=350	=350
*^	*	*
8r	8r	24dLL	.
.	.	24f	.
.	.	24dJJ	.
24cLL	8DD' 8C' 8D'	8r	.
24F	.	.	.
24cJJ	.	.	.
8r	8r	24d#LL	.
.	.	24f#	.
.	.	24d#JJ	.
24cLL	8DD#' 8C' 8D#'	8r	.
24F#	.	.	.
24cJJ	.	.	.
=351	=351	=351	=351
8r	8r	24eLL	.
.	.	24g	.
.	.	24eJJ	.
24cLL	8EE' 8C' 8E'	8r	.
24G	.	.	.
24cJJ	.	.	.
8r	8r	24dnLL	.
.	.	24fn	.
.	.	24dJJ	.
24BLL	8DDn 8C 8Dn	8r	.
24Fn	.	.	.
24BJJ	.	.	.
=352	=352	=352	=352
8r	8r	24cLL	.
.	.	24e	.
.	.	24cJJ	.
24GLL	8CC' 8C'	8r	.
24E	.	.	.
24GJJ	.	.	.
24CCLL	4r	24gLL	f
24EE	.	24cc	.
24GGJJ	.	24gJJ	.
24CLL	.	24eLL	.
24GG	.	24c	.
24EEJJ	.	24eJJ	.
*v	*v	*	*
=353	=353	=353
24CCLL	24aLL	.
24FF	24cc	.
24AAJJ	24aJJ	.
24CLL	24fLL	.
24AA	24c	.
24FFJJ	24fJJ	.
24CCLL	24gLL	.
24EE	24cc	.
24GGJJ	24gJJ	.
24CLL	24eLL	.
24GG	24c	.
24EEJJ	24eJJ	.
!!LO:LB:g=z
=354	=354	=354
24CCLL	24fLL	.
24DD	24cc	.
24FFJJ	24fJJ	.
24CLL	24dLL	.
24FF	24c	.
24DDJJ	24dJJ	.
24CCLL	24f#LL	.
24DD#	24cc	.
24FF#JJ	24f#JJ	.
24CLL	24d#LL	.
24FF#	24c	.
24DD#JJ	24d#JJ	.
=355	=355	=355
24CCLL	24gLL	.
24EE	24cc	.
24GGJJ	24gJJ	.
24CLL	24eLL	.
24GG	24c	.
24EEJJ	24eJJ	.
24CCLL	24fnLL	.
24DDn	24b	.
24FFnJJ	24fJJ	.
24CLL	24dnLL	.
24FF	24B	.
24DDJJ	24dJJ	.
=356	=356	=356
24CCLL	24gLL	.
24EE	24cc	.
24GGJJ	24gJJ	.
24CLL	24eLL	.
24GG	24c	.
24EEJJ	24eJJ	.
24CCLL	24ccLL	.
24C	24ee	.
24EJJ	24ccJJ	.
24GLL	24gLL	.
24E	24e	.
24CJJ	24gJJ	.
=357	=357	=357
24CCLL	24ccLL	.
24C	24ff	.
24FJJ	24ccJJ	.
24ALL	24aLL	.
24F	24f	.
24CJJ	24aJJ	.
24CCLL	24ccLL	.
24C	24ee	.
24EJJ	24ccJJ	.
24GLL	24gLL	.
24E	24e	.
24CJJ	24gJJ	.
!!LO:LB:g=z
=358	=358	=358
24CCLL	24ccLL	.
24C	24dd	.
24DJJ	24ccJJ	.
24FLL	24fLL	.
24D	24d	.
24CJJ	24fJJ	.
24CCLL	24ccLL	.
24C	24dd#	.
24D#JJ	24ccJJ	.
24F#LL	24f#LL	.
24D#	24d#	.
24CJJ	24f#JJ	.
=359	=359	=359
24CCLL	24ccLL	.
24C	24ee	.
24EJJ	24ccJJ	.
24GLL	24gLL	.
24E	24e	.
24CJJ	24gJJ	.
24CCLL	24bLL	.
24C	24dd	.
24DnJJ	24bJJ	.
24FnLL	24fnLL	.
24D	24dn	.
24CJJ	24fJJ	.
=360	=360	=360
24CCLL	24gLL	.
24C	24cc	.
24EJJ	24gJJ	.
24GLL	24eLL	.
24E	24c	.
24CJJ	24eJJ	.
24CCLL	24ccLL	.
24C	24ee	.
24EJJ	24ccJJ	.
24GLL	24gLL	.
24E	24e	.
24CJJ	24gJJ	.
=361	=361	=361
24GGLL	24bLL	.
24BB	24dd	.
24DJJ	24bJJ	.
24GLL	24gLL	.
24D	24d	.
24BBJJ	24gJJ	.
24DDLL	24ddLL	.
24D	24ff	.
24FJJ	24ddJJ	.
24ALL	24aLL	.
24F	24f	.
24DJJ	24aJJ	.
!!LO:LB:g=z
=362	=362	=362
24AALL	24ccLL	.
24C	24ee	.
24EJJ	24ccJJ	.
24ALL	24aLL	.
24E	24e	.
24CJJ	24aJJ	.
24FFLL	24ffLL	.
24C	24aa	.
24DJJ	24ffJJ	.
24FLL	24ccLL	.
24D	24a	.
24CJJ	24ccJJ	.
=363	=363	=363
24GGLL	24ddLL	.
24C	24gg	.
24DJJ	24ddJJ	.
24GLL	24ccLL	.
24D	24g	.
24CJJ	24ccJJ	.
24GGLL	24ddLL	.
24BB	24gg	.
24DJJ	24ddJJ	.
24GLL	24bLL	.
24D	24g	.
24BBJJ	24bJJ	.
=364	=364	=364
24CCLL	24eeLL	.
24C	24gg	.
24EJJ	24eeJJ	.
24GLL	24ccLL	.
24E	24g	.
24CJJ	24ccJJ	.
24CCLL	24eeLL	.
24C	24gg	.
24EJJ	24eeJJ	.
24GLL	24ccLL	.
24E	24g	.
24CJJ	24ccJJ	.
=365	=365	=365
24GGLL	24dd'LL	.
24BB	24gg	.
24DJJ	24ddJJ	.
24GLL	24bLL	.
24D	24g	.
24BBJJ	24bJJ	.
24DDLL	24ffLL	.
24D	24aa	.
24FJJ	24ffJJ	.
24ALL	24ddLL	.
24F	24a	.
24DJJ	24ddJJ	.
!!LO:LB:g=z
=366	=366	=366
24AALL	24eeLL	.
24C	24aa	.
24EJJ	24eeJJ	.
24ALL	24ccLL	.
24E	24a	.
24CJJ	24ccJJ	.
24AALL	24aaLL	.
24C	24ccc	.
24EJJ	24aaJJ	.
24ALL	24eeLL	.
24E	24cc	.
24CJJ	24eeJJ	.
=367	=367	=367
24DDLL	24aaLL	.
24AA	24ccc	.
24CJJ	24aaJJ	.
24DLL	24ff#LL	.
24C	24cc	.
24AAJJ	24ff#JJ	.
24DDLL	24aaLL	.
24AA	24ccc	.
24CJJ	24aaJJ	.
24DLL	24ff#LL	.
24C	24cc	.
24AAJJ	24ff#JJ	.
=368	=368	=368
24GGLL	24ggLL	.
24D	24bb	.
24GJJ	24ggJJ	.
24GGLL	24ddLL	.
24D	24b	.
24GJJ	24ddJJ	.
24GGLL	24aaLL	.
24C	24ddd	.
24DJJ	24aaJJ	.
24GGLL	24ff#LL	.
24C	24dd	.
24DJJ	24ff#JJ	.
=369	=369	=369
24GGLL	24bbLL	.
24BB	24ddd	.
24DJJ	24bbJJ	.
24GGLL	24ggLL	.
24BB	24dd	.
24DJJ	24ggJJ	.
24GGLL	24aaLL	.
24C	24ddd	.
24DJJ	24aaJJ	.
24GGLL	24ff#LL	.
24C	24dd	.
24DJJ	24ff#JJ	.
!!LO:LB:g=z
=370	=370	=370
24GGLL	24bbLL	.
24BB	24ddd	.
24DJJ	24bbJJ	.
24GGLL	24ggLL	.
24BB	24dd	.
24DJJ	24ggJJ	.
24GGLL	24dddLL	p
24C	24fff#	.
24DJJ	24dddJJ	.
24ALL	24aaLL	.
24D	24ff#	.
24CJJ	24aaJJ	.
=371	=371	=371
24GGLL	24dddLL	.
24BB	24ggg	.
24DJJ	24dddJJ	.
24GLL	24bbLL	.
24D	24gg	.
24BBJJ	24bbJJ	.
24GGLL	24dddLL	.
24C	24fff#	.
24DJJ	24dddJJ	.
24ALL	24aaLL	.
24D	24ff#	.
24CJJ	24aaJJ	.
=372	=372	=372
24GGLL	24dddLL	.
24BB	24ggg	.
24DJJ	24dddJJ	.
24GLL	24bbLL	.
24D	24gg	.
24BBJJ	24bbJJ	.
24GGLL	24aaLL	ff
24C	24ddd	.
24DJJ	24aaJJ	.
24GGLL	24ff#LL	.
24C	24dd	.
24DJJ	24ff#JJ	.
=373	=373	=373
24GGLL	24bbLL	.
24BB	24ddd	.
24DJJ	24bbJJ	.
24GGLL	24ggLL	.
24BB	24dd	.
24DJJ	24ggJJ	.
24GGLL	24aaLL	.
24C	24ddd	.
24DJJ	24aaJJ	.
24GGLL	24ff#LL	.
24C	24dd	.
24DJJ	24ff#JJ	.
!!LO:LB:g=z
=374	=374	=374
24GGLL	24bbLL	.
24BB	24ddd	.
24DJJ	24bbJJ	.
24GGLL	24ggLL	.
24BB	24dd	.
24DJJ	24ggJJ	.
24GGLL	24dddLL	p
24C	24fff#	.
24DJJ	24dddJJ	.
24ALL	24aaLL	.
24D	24ff#	.
24CJJ	24aaJJ	.
=375	=375	=375
24GGLL	24dddLL	.
24BB	24ggg	.
24DJJ	24dddJJ	.
24GLL	24bbLL	.
24D	24gg	.
24BBJJ	24bbJJ	.
24GGLL	24dddLL	.
24C	24fff#	.
24DJJ	24dddJJ	.
24ALL	24aaLL	.
24D	24ff#	.
24CJJ	24aaJJ	.
=376	=376	=376
24GGLL	24dddLL	.
24BB	24ggg	.
24DJJ	24dddJJ	.
24GLL	24bbLL	.
24D	24gg	.
24BBJJ	24bbJJ	.
24GGLL	24dddLL	.
24C	24fff#	.
24DJJ	24dddJJ	.
24ALL	24aaLL	.
24D	24ff#	.
24CJJ	24aaJJ	.
=377	=377	=377
24GGLL	24dddLL	.
24BB	24ggg	.
24DJJ	24dddJJ	.
24GLL	24bbLL	.
24D	24gg	.
24BBJJ	24bbJJ	.
24GGLL	24dddLL	.
24C	24fff#	.
24DJJ	24dddJJ	.
24ALL	24aaLL	.
24D	24ff#	.
24CJJ	24aaJJ	.
=378	=378	=378
8GG 8BB 8D 8G	8gg 8ggg	.
8r	8r	.
4r	4g'' 4b'' 4dd'' 4gg''	ff
!!LO:LB:g=z
=379	=379	=379
4r	2g 2b 2dd 2gg	.
4GG'' 4BB'' 4D'' 4G''	.	.
=380	=380	=380
8GGG 8GG	4r	.
8r	.	.
4r	4b'' 4dd'' 4gg'' 4bb''	.
=381	=381	=381
4r	2b 2dd 2gg 2bb	.
4GG'' 4BB'' 4D'' 4G''	.	.
=382	=382	=382
8GGG 8GG	4r	.
8r	.	.
4r	4dd'' 4ff'' 4bb'' 4ddd''	.
=383	=383	=383
4r	2dd 2ff 2bb 2ddd	.
4GG'' 4BB'' 4D'' 4G''	.	.
=384	=384	=384
8GGG 8GG	4r	.
8r	.	.
4r	4ff'' 4bb'' 4ddd'' 4fff''	.
=385	=385	=385
4r	2ff 2bb 2ddd 2fff	>
4GG'' 4BB'' 4D'' 4G''	.	.
=386	=386	=386
8GGG 8GG	4r	.
8r	.	.
4r	4bb 4ddd (4fff	.
!!LO:LB:g=z
=387	=387	=387
4G' 4B' 4d' 4f'	4r	.
4r	4aa-' 4bb' 4ddd' 4fff'	.
=388	=388	=388
4G' 4B' 4d' 4f'	4r	.
4r	4ff' 4aa-' 4bb' 4ddd'	.
=389	=389	=389
4G' 4B' 4d' 4f'	4r	.
4r	4dd' 4ff' 4aa-' 4bb'	.
=390	=390	=390
4G' 4B' 4d' 4f'	4r	.
4r	4b' 4dd' 4ff' 4aa-'	p
=391	=391	=391
4GG' 4BB' 4D' 4F'	4r	.
4r	4a-' 4b' 4dd' 4ff'	.
=392	=392	=392
4GG' 4BB' 4D' 4F'	4r	.
4r	4f' 4a-' 4b' 4dd'	.
=393	=393	=393
4GG' 4BB' 4D' 4F'	4r	.
4r	4d' 4f' 4a-' 4b'	.
=394	=394	=394
4GG' 4BB' 4D' 4F'	4r	.
4r	4B' 4d' 4f' 4a-')	pp
!!LO:LB:g=z
=395	=395	=395
2r	2r	.
=396	=396	=396
4GG 4BB- 4C# 4En	4r	.
4r	4en 4g	.
=397	=397	=397
2r	2r	.
=398	=398	=398
4GGn 4AAn 4C 4E-	4r	.
4r	4An 4cn 4e- 4f#	.
=399	=399	=399
2r	2r	.
=400	=400	=400
8GG	4r	.
8r	.	.
4r	[4B [4d [4f	ppp
*clefG2	*	*
=401	=401	=401
8gg	2B_ 2d_ 2f_	.
8r	.	.
*clefF4	*	*
8G	.	.
8r	.	.
=402	=402	=402
8GG	4B_ 4d_ 4f_	.
8r	.	.
4GGG;	4B;] 4d;] 4f;]	.
!!LO:LB:g=z
=	=	=
*M2/2	*M2/2	*M2/2
*MM220	*MM220	*MM220
4CC 4C	4c	f
*clefG2	*	*
8eL	4ggg	p
8gJ	.	.
8eL	(4.ggg	.
8g	.	.
8e	.	.
8gJ	8eee	.
=403	=403	=403
8fL	4ddd	.
8g	.	.
8f	4gg	.
8gJ	.	.
8eL	4ccc	.
8g	.	.
8e	4eee)	.
8gJ	.	.
=404	=404	=404
8eL	4r	.
8g	.	.
8e	4ggg''	.
8gJ	.	.
8eL	(4.ggg	.
8g	.	.
8e	.	.
8gJ	8eee	.
=405	=405	=405
8fL	4ddd	.
8g	.	.
8f	4gg	.
8gJ	.	.
8eL	4ccc)	.
8g	.	.
8e	4r	.
8gJ	.	.
=406	=406	=406
*^	*	*
8eL	4c	8gggL	.
8g	.	8fff#	.
8e	4c	8ggg	.
8gJ	.	8fff#J	.
8eL	4c	8gggL	.
8g	.	8fff#	.
8e	4c	8ggg	.
8gJ	.	8eeeJ	.
!!LO:LB:g=z
=407	=407	=407	=407
8fL	4c	8dddL	.
8g	.	8ccc#	.
8f	4c	8ddd	.
8gJ	.	8ggJ	.
8eL	4c	8cccnL	.
8g	.	8bb	.
8e	4c	8ccc	.
8gJ	.	8eeeJ	.
=408	=408	=408	=408
8eL	4c	8gggL	.
8g	.	8fff#	.
8e	4c	8ggg	.
8gJ	.	8fff#J	.
8eL	4c	8gggL	.
8g	.	8fff#	.
8e	4c	8ggg	.
8gJ	.	8eeeJ	.
=409	=409	=409	=409
8fL	4c	8dddL	.
8g	.	8ccc#	.
8f	4c	8ddd	.
8gJ	.	8ggJ	.
8eL	4c	8cccnL	.
8g	.	8bb	.
8e	4c	8ccc	.
8gJ	.	8eeeJ	.
=410	=410	=410	=410
4c	8fL	8dddL	<
.	8g	8ccc#	.
4c	8f	8ddd	.
.	8gJ	8ggJ	.
*v	*v	*	*
*clefF4	*	*
*^	*	*
8eL	2r	8cccnL	f
8d#	.	8bb	.
8e	.	8ccc	.
8cJ	.	8eeeJ	.
*v	*v	*	*
=411	=411	=411
8dnL	8bbL	.
8c#	8aa#	.
8d	8bb	.
8BJ	8dddJ	.
8cnL	8aanL	.
8B	8gg#	.
8c	8aa	.
8AJ	8cccJ	.
!!LO:LB:g=z
=412	=412	=412
8BL	8ggnL	.
8A#	8ff#	.
8B	8gg	.
8GJ	8bbJ	.
8AnL	8ffnL	.
8G#	8ee	.
8A	8ff	.
8FJ	8aaJ	.
=413	=413	=413
8GnL	8eeL	.
8F#	8dd#	.
8G	8ee	.
8EJ	8ggnJ	.
8FnL	8ddnL	.
8E	8cc#	.
8F	8dd	.
8DJ	8ffJ	.
=414	=414	=414
8EL	8ccnL	.
8D#	8b	.
8E	8cc	.
8CJ	8eeJ	.
8cL	8eeL	.
8B	8dd#	.
8c	8ee	.
8eJ	8ccJ	.
=415	=415	=415
8BL	8ddnL	.
8A#	8cc#	.
8B	8dd	.
8dJ	8bJ	.
8AnL	8ccnL	.
8G#	8b	.
8A	8cc	.
8cJ	8aJ	.
=416	=416	=416
8GnL	8bL	.
8F#	8a#	.
8G	8b	.
8BJ	8gJ	.
8FnL	8anL	.
8E	8g#	.
8F	8a	.
8AJ	8fJ	.
!!LO:LB:g=z
=417	=417	=417
8EL	8gnL	.
8D#	8f#	.
8E	8g	.
8GJ	8eJ	.
8DnL	8fnL	.
8C#	8e	.
8D	8f	.
8FJ	8dJ	.
=418	=418	=418
4Cn	8eL	ff
.	8c	.
8r	8G	.
(8C	8eJ	.
4GG)	8dL	.
.	8B	.
8r	8G	.
(8GG	8dJ	.
=419	=419	=419
4D)	8fL	.
.	8d	.
8r	8A	.
(8D	8fJ	.
4AA)	8eL	.
.	8c	.
8r	8A	.
(8AA	8eJ	.
=420	=420	=420
4F)	8aL	.
.	8f	.
8r	8c	.
(8F	8aJ	.
4C)	8gL	.
.	8e	.
8r	8c	.
(8C	8ccJ	.
=421	=421	=421
4G)	8dL	.
.	8cc	.
8r	8g	.
(8G	8dJ	.
4GG)	8bL	.
.	8g	.
8r	8d	.
(8GG	8bJ	.
!!LO:LB:g=z
=422	=422	=422
4C)	8eeL	.
.	8cc	.
8r	8g	.
(8c	8eeJ	.
4G)	8gL	.
.	8dd	.
8r	8b	.
(8G	8gJ	.
=423	=423	=423
4D)	8ffL	.
.	8dd	.
8r	8a	.
(8d	8ffJ	.
4A)	8aL	.
.	8ee	.
8r	8cc	.
(8A	8aJ	.
=424	=424	=424
4F)	8aaL	.
.	8ff	.
8r	8cc	.
(8f	8aaJ	.
4F)	8ccL	.
.	8aa	.
8r	8ff	.
(8f	8ccJ	.
=425	=425	=425
4F)	8aaL	.
.	8ff	.
8r	8cc	.
(8f	8aaJ	.
4F)	8ccL	.
.	8aa	.
8r	8ff	.
(8F	8ccJ	.
=426	=426	=426
4FF)	4r	f
8AL	4ccc''	p
8cJ	.	.
8AL	4.ccc	.
8c	.	.
8A	.	.
8cJ	8aa	.
!!LO:LB:g=z
=427	=427	=427
8B-L	4gg	.
8c	.	.
8B-	4cc	.
8cJ	.	.
8AL	4ff	.
8c	.	.
8A	4aa	.
8cJ	.	.
=428	=428	=428
8AL	4r	.
8c	.	.
8A	8cccL	.
8cJ	8bbnJ	.
8AL	8cccL	.
8c	8bb	.
8A	8ccc	.
8cJ	8aaJ	.
=429	=429	=429
8B-L	8ggL	.
8c	8ff#	.
8B-	8gg	.
8cJ	8ccJ	.
8AL	8ffnL	.
8c	8ee	.
8A	8ff	.
8cJ	8aaJ	.
=430	=430	=430
4GG	4r	f
4Bn	4ff'' 4fff''	p
4d	4.ff (4.fff	.
4B	.	.
.	8dd 8ddd	pp
=431	=431	=431
(4c	4ee 4eee	.
4e	4cc 4ccc	.
4d	4b 4bb	.
4B)	4dd 4ddd)	.
!!LO:LB:g=z
=432	=432	=432
4G	4r	.
4B	4ff'' 4fff''	.
4d	4.ff (4.fff	.
4B	.	.
.	8dd 8ddd	.
=433	=433	=433
4c	4ee 4eee	.
4e	4cc 4ccc	.
4d	4b 4bb	.
4B	4dd 4ddd	.
=434	=434	=434
4A	4cc 4ccc	.
4c	4a 4aa	.
4B	4g 4gg)	.
4G	4b (4bb	.
=435	=435	=435
4F	4a 4aa	.
4A	4f 4ff	.
4G	4e 4ee	.
4E	4g 4gg	.
=436	=436	=436
4D	4f 4ff	.
4F	4d 4dd	.
4C	4e 4ee	.
4E	4c 4cc	.
=437	=437	=437
4BB	4d 4dd	.
4D	4B 4b	.
4AA	4c 4cc	.
4C	4A 4a	.
!!LO:LB:g=z
=438	=438	=438
4GG	4B 4b	.
4BB	4G 4g	.
4FF	4A 4a	.
*	*clefF4	*clefF4
4AA	4F 4f	.
=439	=439	=439
(4EE	4G 4g	.
4GG	4E 4e	.
4GGG 4DD	4F 4f	.
4GG)	4BB 4B)	ff
=440	=440	=440
4AAA- 4AA-	4C 4E- 4c	.
4r	4r	.
4A-'' 4c'' 4e-''	2r	.
4r	.	.
*	*clefG2	*clefG2
=441	=441	=441
1A- 1c 1e-	6r	.
.	(6cc	.
.	6ee-	.
.	6aa-	.
.	6ccc	.
.	6eee-)	.
=442	=442	=442
4EE-	(6ddd-	p
.	6bb-	.
4r	.	.
.	6gg	.
4E- 4G 4B- 4d-	6dd-	.
.	6b-	.
4r	.	.
.	6g)	.
=443	=443	=443
4EEn	(6ddd-	.
.	6bb-	.
4r	.	.
.	6gg	.
4En 4G 4B- 4d-	6dd-	.
.	6b-	.
4r	.	.
.	6g)	.
!!LO:LB:g=z
=444	=444	=444
4FF	1r	ff
4r	.	.
4F'' 4A-'' 4c''	.	.
4r	.	.
=445	=445	=445
1F 1A- 1c	6r	ff
.	(6a-	.
.	6cc	.
.	6ff	.
.	6aa-	.
.	6ccc)	.
=446	=446	=446
4CC	(6bb-	p
.	6gg	.
4r	.	.
.	6een	.
4C 4E 4G 4B-	6b-	.
.	6g	.
4r	.	.
.	6en)	.
=447	=447	=447
4CC	(6bb-	.
.	6gg	.
4r	.	.
.	6ee	.
4C 4E 4G 4B-	6b-	.
.	6g	.
4r	.	.
.	6e)	.
=448	=448	=448
4DD-	1r	ff
4r	.	.
4D-'' 4F'' 4A-''	.	.
4r	.	.
!!LO:LB:g=z
=449	=449	=449
1D- 1F 1A-	6r	.
.	(6f	ff
.	6a-	.
.	6dd-	.
.	6ff	.
.	6aa-)	.
=450	=450	=450
4AAA-	(6gg-	p
.	6ee-	.
4r	.	.
.	6cc	.
4AA- 4C 4E- 4G-	6g-	.
.	6e-	.
4r	.	.
.	6c)	.
=451	=451	=451
4AAAn	(6gg-	.
.	6ee-	.
4r	.	.
.	6cc	.
4AAn 4C 4E- 4G-	6g-	.
.	6e-	.
4r	.	.
.	6c)	.
=452	=452	=452
4BBB-	6r	.
.	(6F	pp
4r	.	.
.	6B-	.
4BB- 4D- 4F	6d-	.
.	6f	.
4r	.	.
.	6b-	.
=453	=453	=453
1BB- 1D- 1F	6dd-	.
.	6ff	.
.	6bb-	.
.	6ddd-	.
.	6fff	.
.	6ff)	.
!!LO:LB:g=z
=454	=454	=454
4AAA-	6r	pp
.	6F	.
4r	.	.
.	6A-	.
4AA- 4C 4F	6c	.
.	6f	.
4r	.	.
.	6a-	.
=455	=455	=455
1AA- 1C 1F	6cc	.
.	6ff	.
.	6aa-	.
.	6ccc	.
.	6fff	.
.	6ff	.
=456	=456	=456
4GGG	6r	pp
.	6F	.
4r	.	.
.	6Bn	.
4GG 4BBn 4D 4F	6d	.
.	6f	.
4r	.	.
.	6bn	.
=457	=457	=457
1GG 1BB 1D 1F	6dd	.
.	6ff	.
.	6bbn	.
.	6ddd	.
.	6fff	.
.	6ff	.
=458	=458	=458
4AAA-	6r	pp
.	6E-	.
4r	.	.
.	6A-	.
4AA- 4C 4E-	6c	.
.	6e-	.
4r	.	.
.	6a-	.
!!LO:LB:g=z
=459	=459	=459
1AA- 1C 1E-	6cc	.
.	6ee-	.
.	6aa-	.
.	6ccc	.
.	6eee-	.
.	6ee-	.
=460	=460	=460
6AAAn	2r	ppp
6CC	.	.
6EE-	.	.
*	*clefF4	*clefF4
6FF#	6r	.
6r	6AAn	.
6r	6C	.
=461	=461	=461
1r	6E-	.
.	6F#	.
.	6An	.
*	*clefG2	*clefG2
.	6c	.
.	6e-	.
.	6f#	.
=462	=462	=462
1r	6an	.
.	6cc	.
.	6ee-	.
.	6ff#	.
.	6aan	.
.	6ccc	.
=463	=463	=463
1r	(6eee-	.
.	6ccc	.
.	6aa)	.
.	(6fff#	.
.	6eee-	.
.	6ccc)	.
!!LO:LB:g=z
=464	=464	=464
4GGG 4CC 4EEn 4GG	8r	.
.	8gg (8gggL	pp
4r	8ff 8fff	.
.	8een 8eeenJ	.
2r	8dd 8dddL	.
.	8cc 8ccc	.
.	8bn 8bbn	.
.	8an 8aanJ	.
=465	=465	=465
1r	4g 4gg	.
.	8f 8ffL	.
.	8e 8eeJ	.
.	8d 8ddL	.
.	8c 8cc	.
.	8B 8b	.
.	8A 8aJ)	.
=466	=466	=466
8r	1G 1c 1e [1g	.
8GGG (8GGL	.	.
8AAA 8AA	.	.
8BBB 8BBJ	.	.
8CC 8CL	.	.
8DD 8D	.	.
8EE 8E	.	.
8FF 8FJ	.	.
=467	=467	=467
4GG 4G	2B 2d 2g]	.
8AA 8AL	.	.
8BB 8BJ	.	.
8C 8cL	2dd 2ff	.
8D 8d	.	.
8E 8e	.	.
8F 8fJ	.	.
=468	=468	=468
4G 4g)	8cc'' 8ee''L	.
.	8gg 8ggg	pp
4r	8ff 8fff	.
.	8ee 8eeeJ	.
2r	8dd 8dddL	.
.	8cc 8ccc	.
.	8b 8bb	.
.	8a 8aaJ	.
!!LO:LB:g=z
=469	=469	=469
1r	4g 4gg	.
.	8f 8ffL	.
.	8e 8eeJ	.
.	8d 8ddL	.
.	8c 8cc	.
.	8B 8b	.
.	8A 8aJ	.
=470	=470	=470
8r	1G 1c 1e [1g	.
8GGG (8GGL	.	.
8AAA 8AA	.	.
8BBB 8BBJ	.	.
8CC 8CL	.	.
8DD 8D	.	.
8EE 8E	.	.
8FF 8FJ	.	.
=471	=471	=471
4GG 4G	2B 2d 2g]	.
8AA 8AL	.	.
8BB 8BJ	.	.
8C 8cL	2dd 2ff	.
8D 8d	.	.
8E 8e	.	.
8F 8fJ	.	.
=472	=472	=472
4G 4g)	8cc'' 8ee''L	.
.	8gg 8ggg	pp
4r	8ff 8fff	.
.	8ee 8eeeJ	.
2r	8dd 8dddL	.
.	8cc 8ccc	.
.	8b 8bb	.
.	8a 8aaJ	.
=473	=473	=473
1r	4g 4gg	.
.	8f 8ffL	.
.	8e 8eeJ	.
.	8d 8ddL	.
.	8c 8cc	.
.	8B 8b	.
.	8A 8aJ	.
!!LO:LB:g=z
=474	=474	=474
8r	8G 8gL	<
8GL	8A	.
8F	8B	.
8EJ	8cJ	.
8DL	8dL	.
8C	8e	.
8BB	8f	.
8AAJ	8f#J	.
=475	=475	=475
4GG	8gL	.
.	8a	.
8FFL	8b	.
8EEJ	8ccJ	.
8DDL	8ddL	.
8CC	8ee	.
8AAA	8ff	.
8AAAJ	8ff#J	.
=476	=476	=476
8GGGL	[1gg	f
8AAA	.	.
8BBB	.	.
8CCJ	.	.
8DDL	.	.
8EE	.	.
8FF	.	.
8FF#J	.	.
=477	=477	=477
8GGL	1gg_	.
8AA	.	.
8BB	.	.
8CJ	.	.
8DL	.	.
8E	.	.
8F	.	.
8F#J	.	.
=478	=478	=478
8GL	1gg_	>
8A	.	.
8B	.	.
8cJ	.	.
8dL	.	.
8e	.	.
8f	.	.
8f#J	.	.
*clefG2	*	*
!!LO:LB:g=z
=479	=479	=479
8gL	1gg_	.
8a	.	.
8b	.	.
8ccJ	.	.
8ddL	.	.
8ee	.	.
8ff	.	.
8eeJ	.	.
=480	=480	=480
4ff	1gg_	p
4r	.	.
8r	.	.
(8eeL	.	.
8ff	.	.
8eeJ	.	.
=481	=481	=481
4ff')	1gg_	.
4r	.	.
8r	.	.
(8eeL	.	.
8ff	.	.
8eeJ	.	.
=482	=482	=482
4ff')	1gg_	.
4r	.	.
2r	.	.
=483	=483	=483
1r	1gg_	.
*clefF4	*	*
=484	=484	=484
*	*^	*
(6C	2r	1gg_	pp
6G	.	.	.
6c)	.	.	.
(6e	2ggg	.	.
6c	.	.	.
6e)	.	.	.
!!LO:LB:g=z
=485	=485	=485	=485
6g	2.ggg	1gg_	.
6e	.	.	.
6g	.	.	.
6e	.	.	.
6c	.	.	.
.	4eee	.	.
6e	.	.	.
=486	=486	=486	=486
6f	2ddd	2gg]	.
6d	.	.	.
6f	.	.	.
6d	2gg	[2gg	.
6B	.	.	.
6d	.	.	.
=487	=487	=487	=487
6e	(2ccc	1gg]	.
6c	.	.	.
6G	.	.	.
6c	4eee)	.	.
6G	.	.	.
.	4r	.	.
6E	.	.	.
=488	=488	=488	=488
6C	2r	[1gg	.
6G	.	.	.
6c	.	.	.
6e	2ggg	.	.
6c	.	.	.
6e	.	.	.
=489	=489	=489	=489
6g	2.ggg	1gg_	.
6e	.	.	.
6g	.	.	.
6e	.	.	.
6c	.	.	.
.	4eee	.	.
6e	.	.	.
!!LO:LB:g=z
=490	=490	=490	=490
6f	2ddd	2gg]	.
6d	.	.	.
6f	.	.	.
6B	2gg	[2gg	.
6d	.	.	.
6B	.	.	.
=491	=491	=491	=491
6c	4ccc	1gg]	.
6A	.	.	.
.	4r	.	.
6G	.	.	.
6F	2r	.	.
6E	.	.	.
6D	.	.	.
=492	=492	=492	=492
6C	2r	[1gg	pp
6G	.	.	.
6c	.	.	.
6e-	2ggg	.	.
6c	.	.	.
6e-	.	.	.
=493	=493	=493	=493
6g	2.ggg	1gg_	.
6e-	.	.	.
6g	.	.	.
6e-	.	.	.
6c	.	.	.
.	4eee-	.	.
6e-	.	.	.
=494	=494	=494	=494
6f	2ddd	2gg]	.
6d	.	.	.
6f	.	.	.
6d	2gg	[2gg	.
6B	.	.	.
6d	.	.	.
!!LO:LB:g=z
=495	=495	=495	=495
*^	*	*	*
6e-	2r	4ccc	1gg]	.
6c	.	.	.	.
.	.	4r	.	.
6e-	.	.	.	.
4E-	6B-	2r	.	.
.	6d-	.	.	.
4r	.	.	.	.
.	6B-	.	.	.
*v	*v	*	*	*
=496	=496	=496	=496
6AA-	2r	2aa-	pp
6E-	.	.	.
6A-	.	.	.
6c	2eee-	[2ee-	.
6A-	.	.	.
6c	.	.	.
=497	=497	=497	=497
6e-	2.eee-	1ee-_	.
6c	.	.	.
6e-	.	.	.
6c	.	.	.
6A-	.	.	.
.	4ccc	.	.
6c	.	.	.
=498	=498	=498	=498
6d-	2bb-	2ee-]	.
6B-'	.	.	.
6d-	.	.	.
6B-	2ee-	(2ee-	.
6G	.	.	.
6B-	.	.	.
=499	=499	=499	=499
*^	*	*	*
6c	2r	4aa-	2ee-)	.
6A-	.	.	.	.
.	.	4r	.	.
6c	.	.	.	.
4C	6G	2r	2een	.
.	6B-	.	.	.
4r	.	.	.	.
.	6G	.	.	.
*v	*v	*	*	*
!!LO:LB:g=z
=500	=500	=500	=500
6FF	2r	2ff	pp
6C	.	.	.
6F	.	.	.
6A-	2ccc	[2cc	.
6F	.	.	.
6A-	.	.	.
=501	=501	=501	=501
6c	2.ccc	1cc_	.
6A-	.	.	.
6c	.	.	.
6A-	.	.	.
6F	.	.	.
.	4aa-	.	.
6A-	.	.	.
=502	=502	=502	=502
6B-	2gg	2cc]	.
6G	.	.	.
6B-	.	.	.
6G	2cc	[2cc	.
6E	.	.	.
6G	.	.	.
=503	=503	=503	=503
6A-	2.ff	1cc_	.
6F	.	.	.
6A-	.	.	.
6F	.	.	.
6C	.	.	.
.	4aa-	.	.
6F	.	.	.
=504	=504	=504	=504
6B-	2gg	2cc]	.
6G	.	.	.
6B-	.	.	.
6E	2cc	[2cc	.
6G	.	.	.
6E	.	.	.
!!LO:LB:g=z
=505	=505	=505	=505
6F	2ff	1cc]	.
6A-	.	.	.
6F	.	.	.
6G	2ee-	.	.
6c	.	.	.
6G	.	.	.
*	*v	*v	*
=506	=506	=506
4A- 4f	[1cc	.
4r	.	.
4r	.	.
4A- 4f	.	.
=507	=507	=507
4A- 4f	1cc_	.
4r	.	.
4r	.	.
4A- 4f	.	.
=508	=508	=508
4A- 4f#	1cc_	.
4r	.	.
4r	.	.
4A- 4f#	.	.
=509	=509	=509
4A- 4f#	1cc]	.
4r	.	.
4r	.	.
4A- 4f#	.	.
!!LO:LB:g=z
=510	=510	=510
4G 4g	[1dd	<
*clefG2	*	*
4g 4cc	.	.
4g 4cc	.	.
4g 4cc	.	.
=511	=511	=511
4g 4cc	1dd_	.
4g 4cc	.	.
4g 4cc	.	.
4g 4cc	.	.
=512	=512	=512
*	*^	*
[1g [1b	4r	1dd_	.
.	4gg	.	.
.	4gg	.	.
.	4gg	.	.
=513	=513	=513	=513
1g] 1b]	4gg	1dd]	.
.	4gg	.	.
.	4gg	.	.
.	4gg	.	.
*clefF4	*	*	*
=514	=514	=514	=514
4CC	4r	4cc 4ee	ff
4C' 4E' 4G' 4c'	4ggg	4gg	.
[2C 2E 2G 2c	4.ggg	[2gg	.
.	8eee	.	.
!!LO:LB:g=z
=515	=515	=515	=515
2C] 2F 2G 2B	4ddd	4gg]	.
.	4gg	2.gg	.
2C 2E 2G 2c	4ccc	.	.
.	4eee	.	.
=516	=516	=516	=516
4CC	4r	4r	.
4C' 4E' 4G' 4c'	4gg	4g	p
[2C 2E 2G 2c	4.gg	[2g	.
.	8ee	.	.
=517	=517	=517	=517
2C_ 2F 2G 2B	4dd	4g]	.
.	4g	2.g	.
2C] 2E 2G 2c	4cc	.	.
.	4ee	.	.
*	*v	*v	*
=518	=518	=518
4CC	4r	.
4C' 4E' 4G' 4c'	8gggL	ff
.	8fff#J	.
[2C 2E 2G 2c	8gggL	.
.	8fff#	.
.	8ggg	.
.	8eeeJ	.
=519	=519	=519
2C_ 2F 2G 2B	8dddL	.
.	8ccc#	.
.	8ddd	.
.	8ggJ	.
2C] 2E 2G 2c	8cccnL	.
.	8bb	.
.	8ccc	.
.	8eeeJ	.
!!LO:LB:g=z
=520	=520	=520
4CC	4r	.
4C' 4E' 4G' 4c'	8ggL	p
.	8ff#J	.
[2C 2E 2G 2c	8ggL	.
.	8ff#	.
.	8gg	.
.	8eeJ	.
=521	=521	=521
2C_ 2F 2G 2B	8ddL	.
.	8cc#	.
.	8dd	.
.	8gJ	.
2C] 2E 2G 2c	8ccnL	.
.	8b	.
.	8cc	.
.	8eeJ	.
=522	=522	=522
4C 4F	8dL	.
.	8c#	.
4C 4F	8d	.
.	8GJ	.
4C 4E	8cnL	.
.	8B	.
4C 4E	8c	.
.	8eJ	.
=523	=523	=523
4C 4F	8dL	.
.	8c#	.
4C 4F	8d	.
.	8GJ	.
4C 4E	8cnL	.
.	8B	.
4C 4E	8c	.
.	8eJ	.
=524	=524	=524
4C 4F	8dL	<
.	8c#	.
4C 4F 4G	8d	.
.	8BJ	.
4C 4D 4F 4G 4B	8fL	.
.	8e	.
4C 4D 4F 4G 4B	8f	.
.	8dJ	.
=525	=525	=525
4C 4D 4F 4G 4B	8bL	.
.	8a#	.
4C 4D 4F 4G 4B	8b	.
.	8fJ	.
4C 4D 4F 4G 4B	8ddL	.
.	8cc#	.
4C 4D 4F 4G 4B	8dd	.
.	8bJ	.
=526	=526	=526
4C 4D 4F 4G 4B	8ffL	f
.	8ee	.
4C 4D 4F 4G 4B	8ff	.
.	8ddJ	.
4C 4D 4F 4G 4B	8bbL	.
.	8aa#	.
4C 4D 4F 4G 4B	8bb	.
.	8ffJ	.
=527	=527	=527
4C 4D 4F 4G 4B	8dddL	.
.	8ccc#	.
4C 4D 4F 4G 4B	8ddd	.
.	8bbJ	.
4C 4D 4F 4G 4B	8fffL	.
.	8eee	.
4C 4D 4F 4G 4B	8fff	.
.	8bbJ	.
=528	=528	=528
4CC 4C	4cccn	ff
4E' 4G'	4e' 4g'	.
4C' 4E'	4c' 4e'	.
4G' 4c'	4g' 4cc'	.
=529	=529	=529
4E' 4G'	4e' 4g'	.
4c' 4e'	4cc' 4ee'	.
4G' 4c'	4g' 4cc'	.
*clefG2	*	*
4e' 4g'	4ee' 4gg'	.
!!LO:LB:g=z
=530	=530	=530
4c' 4e'	4cc' 4ee'	.
4g' 4cc'	4gg' 4ccc'	.
4e' 4g'	4ee' 4gg'	.
4cc' 4ee'	4ccc' 4eee'	.
=531	=531	=531
4g' 4cc'	4gg' 4ccc'	.
4ee' 4gg'	4eee' 4ggg'	.
4cc' 4ee'	4ccc' 4eee'	.
4ee' 4gg'	4eee' 4ggg'	.
=532	=532	=532
4cc 4ee	4ccc 4eee	.
4r	4r	.
2r	2r	.
=533	=533	=533
4e 4g	4ee 4gg	>
4r	4r	.
2r	2r	.
=534	=534	=534
4c 4e	4cc 4ee	.
4r	4r	.
2r	2r	.
*clefF4	*	*
=535	=535	=535
4E 4G	4e 4g	.
4r	4r	.
2r	2r	.
=536	=536	=536
4C 4E	4c 4e	.
4r	4r	.
2r	2r	.
*clefG2	*	*
!!LO:LB:g=z
=537	=537	=537
4e 4g	4ee 4gg	.
4r	4r	.
4e 4g	4ee 4gg	.
4r	4r	.
=538	=538	=538
4c 4e	4cc 4ee	.
4r	4r	.
2r	2r	.
*clefF4	*	*
=539	=539	=539
4CC' 4EE' 4GG' 4C'	4gg' 4ccc' 4eee' 4ggg'	ff
4r	4r	.
4CC' 4EE' 4GG' 4C'	4gg' 4ccc' 4eee' 4ggg'	.
4r	4r	.
=540	=540	=540
4CC' 4EE' 4GG' 4C'	4ee' 4gg' 4ccc' 4eee'	.
4r	4r	.
2r	2r	.
=541	=541	=541
4CC' 4EE' 4GG' 4C'	4e' 4g' 4cc' 4ee'	f
4r	4r	.
2r	2r	.
=542	=542	=542
4CC' 4EE' 4GG' 4C'	4c' 4e' 4g' 4cc'	f
4r	4r	.
2r	2r	.
!!LO:LB:g=z
=543||	=543||	=543||
!!!OMD: Prestissimo
4CC 4C	4c	f
*clefG2	*	*
8eL	4ggg	p
8gJ	.	.
8eL	(4.ggg	.
8g	.	.
8e	.	.
8gJ	8eee	.
=544	=544	=544
8fL	4ddd	.
8g	.	.
8f	4gg	.
8gJ	.	.
8eL	4ccc	.
8g	.	.
8e	4eee)	.
8gJ	.	.
=545	=545	=545
8eL	4r	.
8g	.	.
8e	4ggg''	.
8gJ	.	.
8eL	(4.ggg	.
8g	.	.
8e	.	.
8gJ	8eee	.
=546	=546	=546
8fL	4ddd	.
8g	.	.
8f	4gg	.
8gJ	.	.
8eL	4ccc)	.
8g	.	.
8e	4r	.
8gJ	.	.
=547	=547	=547
*^	*	*
8eL	4c	8gggL	.
8g	.	8fff#	.
8e	4c	8ggg	.
8gJ	.	8fff#J	.
8eL	4c	8gggL	.
8g	.	8fff#	.
8e	4c	8ggg	.
8gJ	.	8eeeJ	.
=548	=548	=548	=548
8fL	4c	8dddL	.
8g	.	8ccc#	.
8f	4c	8ddd	.
8gJ	.	8ggJ	.
8eL	4c	8cccnL	.
8g	.	8bb	.
8e	4c	8ccc	.
8gJ	.	8eeeJ	.
=549	=549	=549	=549
8eL	4c	8gggL	.
8g	.	8fff#	.
8e	4c	8ggg	.
8gJ	.	8fff#J	.
8eL	4c	8gggL	.
8g	.	8fff#	.
8e	4c	8ggg	.
8gJ	.	8eeeJ	.
=550	=550	=550	=550
8fL	4c	8dddL	.
8g	.	8ccc#	.
8f	4c	8ddd	.
8gJ	.	8ggJ	.
8eL	4c	8cccnL	.
8g	.	8bb	.
8e	4c	8ccc	.
8gJ	.	8eeeJ	.
=551	=551	=551	=551
4c	8fL	8dddL	<
.	8g	8ccc#	.
4c	8f	8ddd	.
.	8gJ	8ggJ	.
*v	*v	*	*
*clefF4	*	*
*^	*	*
8eL	2r	8cccnL	f
8d#	.	8bb	.
8e	.	8ccc	.
8cJ	.	8eeeJ	.
*v	*v	*	*
=552	=552	=552
8dnL	8bbL	.
8c#	8aa#	.
8d	8bb	.
8BJ	8dddJ	.
8cnL	8aanL	.
8B	8gg#	.
8c	8aa	.
8AJ	8cccJ	.
=553	=553	=553
8BL	8ggnL	.
8A#	8ff#	.
8B	8gg	.
8GJ	8bbJ	.
8AnL	8ffnL	.
8G#	8ee	.
8A	8ff	.
8FJ	8aaJ	.
=554	=554	=554
8GnL	8eeL	.
8F#	8dd#	.
8G	8ee	.
8EJ	8ggnJ	.
8FnL	8ddnL	.
8E	8cc#	.
8F	8dd	.
8DJ	8ffJ	.
=555	=555	=555
8EL	8ccnL	.
8D#	8b	.
8E	8cc	.
8CJ	8eeJ	.
8cL	8eeL	.
8B	8dd#	.
8c	8ee	.
8eJ	8ccJ	.
=556	=556	=556
8BL	8ddnL	.
8A#	8cc#	.
8B	8dd	.
8dJ	8bJ	.
8AnL	8ccnL	.
8G#	8b	.
8A	8cc	.
8cJ	8aJ	.
=557	=557	=557
8GnL	8bL	.
8F#	8a#	.
8G	8b	.
8BJ	8gJ	.
8FnL	8anL	.
8E	8g#	.
8F	8a	.
8AJ	8fJ	.
=558	=558	=558
8EL	8gnL	.
8D#	8f#	.
8E	8g	.
8GJ	8eJ	.
8DnL	8fnL	.
8C#	8e	.
8D	8f	.
8FJ	8dJ	.
=559	=559	=559
4Cn	8eL	ff
.	8c	.
8r	8G	.
(8C	8eJ	.
4GG)	8dL	.
.	8B	.
8r	8G	.
(8GG	8dJ	.
=560	=560	=560
4D)	8fL	.
.	8d	.
8r	8A	.
(8D	8fJ	.
4AA)	8eL	.
.	8c	.
8r	8A	.
(8AA	8eJ	.
=561	=561	=561
4F)	8aL	.
.	8f	.
8r	8c	.
(8F	8aJ	.
4C)	8gL	.
.	8e	.
8r	8c	.
(8C	8ccJ	.
=562	=562	=562
4G)	8dL	.
.	8cc	.
8r	8g	.
(8G	8dJ	.
4GG)	8bL	.
.	8g	.
8r	8d	.
(8GG	8bJ	.
=563	=563	=563
4C)	8eeL	.
.	8cc	.
8r	8g	.
(8c	8eeJ	.
4G)	8gL	.
.	8dd	.
8r	8b	.
(8G	8gJ	.
=564	=564	=564
4D)	8ffL	.
.	8dd	.
8r	8a	.
(8d	8ffJ	.
4A)	8aL	.
.	8ee	.
8r	8cc	.
(8A	8aJ	.
=565	=565	=565
4F)	8aaL	.
.	8ff	.
8r	8cc	.
(8f	8aaJ	.
4F)	8ccL	.
.	8aa	.
8r	8ff	.
(8f	8ccJ	.
=566	=566	=566
4F)	8aaL	.
.	8ff	.
8r	8cc	.
(8f	8aaJ	.
4F)	8ccL	.
.	8aa	.
8r	8ff	.
(8F	8ccJ	.
=567	=567	=567
4FF)	4r	f
8AL	4ccc''	p
8cJ	.	.
8AL	4.ccc	.
8c	.	.
8A	.	.
8cJ	8aa	.
=568	=568	=568
8B-L	4gg	.
8c	.	.
8B-	4cc	.
8cJ	.	.
8AL	4ff	.
8c	.	.
8A	4aa	.
8cJ	.	.
=569	=569	=569
8AL	4r	.
8c	.	.
8A	8cccL	.
8cJ	8bbnJ	.
8AL	8cccL	.
8c	8bb	.
8A	8ccc	.
8cJ	8aaJ	.
=570	=570	=570
8B-L	8ggL	.
8c	8ff#	.
8B-	8gg	.
8cJ	8ccJ	.
8AL	8ffnL	.
8c	8ee	.
8A	8ff	.
8cJ	8aaJ	.
=571	=571	=571
4GG	4r	f
4Bn	4ff'' 4fff''	p
4d	4.ff (4.fff	.
4B	.	.
.	8dd 8ddd	pp
=572	=572	=572
(4c	4ee 4eee	.
4e	4cc 4ccc	.
4d	4b 4bb	.
4B)	4dd 4ddd)	.
=573	=573	=573
4G	4r	.
4B	4ff'' 4fff''	.
4d	4.ff (4.fff	.
4B	.	.
.	8dd 8ddd	.
=574	=574	=574
4c	4ee 4eee	.
4e	4cc 4ccc	.
4d	4b 4bb	.
4B	4dd 4ddd	.
=575	=575	=575
4A	4cc 4ccc	.
4c	4a 4aa	.
4B	4g 4gg)	.
4G	4b (4bb	.
=576	=576	=576
4F	4a 4aa	.
4A	4f 4ff	.
4G	4e 4ee	.
4E	4g 4gg	.
=577	=577	=577
4D	4f 4ff	.
4F	4d 4dd	.
4C	4e 4ee	.
4E	4c 4cc	.
=578	=578	=578
4BB	4d 4dd	.
4D	4B 4b	.
4AA	4c 4cc	.
4C	4A 4a	.
=579	=579	=579
4GG	4B 4b	.
4BB	4G 4g	.
4FF	4A 4a	.
*	*clefF4	*clefF4
4AA	4F 4f	.
=580	=580	=580
(4EE	4G 4g	.
4GG	4E 4e	.
4GGG 4DD	4F 4f	.
4GG)	4BB 4B)	ff
=581	=581	=581
4AAA- 4AA-	4C 4E- 4c	.
4r	4r	.
4A-'' 4c'' 4e-''	2r	.
4r	.	.
*	*clefG2	*clefG2
=582	=582	=582
1A- 1c 1e-	6r	.
.	(6cc	.
.	6ee-	.
.	6aa-	.
.	6ccc	.
.	6eee-)	.
=583	=583	=583
4EE-	(6ddd-	p
.	6bb-	.
4r	.	.
.	6gg	.
4E- 4G 4B- 4d-	6dd-	.
.	6b-	.
4r	.	.
.	6g)	.
=584	=584	=584
4EEn	(6ddd-	.
.	6bb-	.
4r	.	.
.	6gg	.
4En 4G 4B- 4d-	6dd-	.
.	6b-	.
4r	.	.
.	6g)	.
=585	=585	=585
4FF	1r	ff
4r	.	.
4F'' 4A-'' 4c''	.	.
4r	.	.
=586	=586	=586
1F 1A- 1c	6r	ff
.	(6a-	.
.	6cc	.
.	6ff	.
.	6aa-	.
.	6ccc)	.
=587	=587	=587
4CC	(6bb-	p
.	6gg	.
4r	.	.
.	6een	.
4C 4E 4G 4B-	6b-	.
.	6g	.
4r	.	.
.	6en)	.
=588	=588	=588
4CC	(6bb-	.
.	6gg	.
4r	.	.
.	6ee	.
4C 4E 4G 4B-	6b-	.
.	6g	.
4r	.	.
.	6e)	.
=589	=589	=589
4DD-	1r	ff
4r	.	.
4D-'' 4F'' 4A-''	.	.
4r	.	.
=590	=590	=590
1D- 1F 1A-	6r	.
.	(6f	ff
.	6a-	.
.	6dd-	.
.	6ff	.
.	6aa-)	.
=591	=591	=591
4AAA-	(6gg-	p
.	6ee-	.
4r	.	.
.	6cc	.
4AA- 4C 4E- 4G-	6g-	.
.	6e-	.
4r	.	.
.	6c)	.
=592	=592	=592
4AAAn	(6gg-	.
.	6ee-	.
4r	.	.
.	6cc	.
4AAn 4C 4E- 4G-	6g-	.
.	6e-	.
4r	.	.
.	6c)	.
=593	=593	=593
4BBB-	6r	.
.	(6F	pp
4r	.	.
.	6B-	.
4BB- 4D- 4F	6d-	.
.	6f	.
4r	.	.
.	6b-	.
=594	=594	=594
1BB- 1D- 1F	6dd-	.
.	6ff	.
.	6bb-	.
.	6ddd-	.
.	6fff	.
.	6ff)	.
=595	=595	=595
4AAA-	6r	pp
.	6F	.
4r	.	.
.	6A-	.
4AA- 4C 4F	6c	.
.	6f	.
4r	.	.
.	6a-	.
=596	=596	=596
1AA- 1C 1F	6cc	.
.	6ff	.
.	6aa-	.
.	6ccc	.
.	6fff	.
.	6ff	.
=597	=597	=597
4GGG	6r	pp
.	6F	.
4r	.	.
.	6Bn	.
4GG 4BBn 4D 4F	6d	.
.	6f	.
4r	.	.
.	6bn	.
=598	=598	=598
1GG 1BB 1D 1F	6dd	.
.	6ff	.
.	6bbn	.
.	6ddd	.
.	6fff	.
.	6ff	.
=599	=599	=599
4AAA-	6r	pp
.	6E-	.
4r	.	.
.	6A-	.
4AA- 4C 4E-	6c	.
.	6e-	.
4r	.	.
.	6a-	.
=600	=600	=600
1AA- 1C 1E-	6cc	.
.	6ee-	.
.	6aa-	.
.	6ccc	.
.	6eee-	.
.	6ee-	.
=601	=601	=601
6AAAn	2r	ppp
6CC	.	.
6EE-	.	.
*	*clefF4	*clefF4
6FF#	6r	.
6r	6AAn	.
6r	6C	.
=602	=602	=602
1r	6E-	.
.	6F#	.
.	6An	.
*	*clefG2	*clefG2
.	6c	.
.	6e-	.
.	6f#	.
=603	=603	=603
1r	6an	.
.	6cc	.
.	6ee-	.
.	6ff#	.
.	6aan	.
.	6ccc	.
=604	=604	=604
1r	(6eee-	.
.	6ccc	.
.	6aa)	.
.	(6fff#	.
.	6eee-	.
.	6ccc)	.
=605	=605	=605
4GGG 4CC 4EEn 4GG	8r	.
.	8gg (8gggL	pp
4r	8ff 8fff	.
.	8een 8eeenJ	.
2r	8dd 8dddL	.
.	8cc 8ccc	.
.	8bn 8bbn	.
.	8an 8aanJ	.
=606	=606	=606
1r	4g 4gg	.
.	8f 8ffL	.
.	8e 8eeJ	.
.	8d 8ddL	.
.	8c 8cc	.
.	8B 8b	.
.	8A 8aJ)	.
=607	=607	=607
8r	1G 1c 1e [1g	.
8GGG (8GGL	.	.
8AAA 8AA	.	.
8BBB 8BBJ	.	.
8CC 8CL	.	.
8DD 8D	.	.
8EE 8E	.	.
8FF 8FJ	.	.
=608	=608	=608
4GG 4G	2B 2d 2g]	.
8AA 8AL	.	.
8BB 8BJ	.	.
8C 8cL	2dd 2ff	.
8D 8d	.	.
8E 8e	.	.
8F 8fJ	.	.
=609	=609	=609
4G 4g)	8cc'' 8ee''L	.
.	8gg 8ggg	pp
4r	8ff 8fff	.
.	8ee 8eeeJ	.
2r	8dd 8dddL	.
.	8cc 8ccc	.
.	8b 8bb	.
.	8a 8aaJ	.
=610	=610	=610
1r	4g 4gg	.
.	8f 8ffL	.
.	8e 8eeJ	.
.	8d 8ddL	.
.	8c 8cc	.
.	8B 8b	.
.	8A 8aJ	.
=611	=611	=611
8r	1G 1c 1e [1g	.
8GGG (8GGL	.	.
8AAA 8AA	.	.
8BBB 8BBJ	.	.
8CC 8CL	.	.
8DD 8D	.	.
8EE 8E	.	.
8FF 8FJ	.	.
=612	=612	=612
4GG 4G	2B 2d 2g]	.
8AA 8AL	.	.
8BB 8BJ	.	.
8C 8cL	2dd 2ff	.
8D 8d	.	.
8E 8e	.	.
8F 8fJ	.	.
=613	=613	=613
4G 4g)	8cc'' 8ee''L	.
.	8gg 8ggg	pp
4r	8ff 8fff	.
.	8ee 8eeeJ	.
2r	8dd 8dddL	.
.	8cc 8ccc	.
.	8b 8bb	.
.	8a 8aaJ	.
=614	=614	=614
1r	4g 4gg	.
.	8f 8ffL	.
.	8e 8eeJ	.
.	8d 8ddL	.
.	8c 8cc	.
.	8B 8b	.
.	8A 8aJ	.
=615	=615	=615
8r	8G 8gL	<
8GL	8A	.
8F	8B	.
8EJ	8cJ	.
8DL	8dL	.
8C	8e	.
8BB	8f	.
8AAJ	8f#J	.
=616	=616	=616
4GG	8gL	.
.	8a	.
8FFL	8b	.
8EEJ	8ccJ	.
8DDL	8ddL	.
8CC	8ee	.
8AAA	8ff	.
8AAAJ	8ff#J	.
=617	=617	=617
8GGGL	[1gg	f
8AAA	.	.
8BBB	.	.
8CCJ	.	.
8DDL	.	.
8EE	.	.
8FF	.	.
8FF#J	.	.
=618	=618	=618
8GGL	1gg_	.
8AA	.	.
8BB	.	.
8CJ	.	.
8DL	.	.
8E	.	.
8F	.	.
8F#J	.	.
=619	=619	=619
8GL	1gg_	>
8A	.	.
8B	.	.
8cJ	.	.
8dL	.	.
8e	.	.
8f	.	.
8f#J	.	.
*clefG2	*	*
=620	=620	=620
8gL	1gg_	.
8a	.	.
8b	.	.
8ccJ	.	.
8ddL	.	.
8ee	.	.
8ff	.	.
8eeJ	.	.
=621	=621	=621
4ff	1gg_	p
4r	.	.
8r	.	.
(8eeL	.	.
8ff	.	.
8eeJ	.	.
=622	=622	=622
4ff')	1gg_	.
4r	.	.
8r	.	.
(8eeL	.	.
8ff	.	.
8eeJ	.	.
=623	=623	=623
4ff')	1gg_	.
4r	.	.
2r	.	.
=624	=624	=624
1r	1gg_	.
*clefF4	*	*
=625	=625	=625
*	*^	*
(6C	2r	1gg_	pp
6G	.	.	.
6c)	.	.	.
(6e	2ggg	.	.
6c	.	.	.
6e)	.	.	.
=626	=626	=626	=626
6g	2.ggg	1gg_	.
6e	.	.	.
6g	.	.	.
6e	.	.	.
6c	.	.	.
.	4eee	.	.
6e	.	.	.
=627	=627	=627	=627
6f	2ddd	2gg]	.
6d	.	.	.
6f	.	.	.
6d	2gg	[2gg	.
6B	.	.	.
6d	.	.	.
=628	=628	=628	=628
6e	(2ccc	1gg]	.
6c	.	.	.
6G	.	.	.
6c	4eee)	.	.
6G	.	.	.
.	4r	.	.
6E	.	.	.
=629	=629	=629	=629
6C	2r	[1gg	.
6G	.	.	.
6c	.	.	.
6e	2ggg	.	.
6c	.	.	.
6e	.	.	.
=630	=630	=630	=630
6g	2.ggg	1gg_	.
6e	.	.	.
6g	.	.	.
6e	.	.	.
6c	.	.	.
.	4eee	.	.
6e	.	.	.
=631	=631	=631	=631
6f	2ddd	2gg]	.
6d	.	.	.
6f	.	.	.
6B	2gg	[2gg	.
6d	.	.	.
6B	.	.	.
=632	=632	=632	=632
6c	4ccc	1gg]	.
6A	.	.	.
.	4r	.	.
6G	.	.	.
6F	2r	.	.
6E	.	.	.
6D	.	.	.
=633	=633	=633	=633
6C	2r	[1gg	pp
6G	.	.	.
6c	.	.	.
6e-	2ggg	.	.
6c	.	.	.
6e-	.	.	.
=634	=634	=634	=634
6g	2.ggg	1gg_	.
6e-	.	.	.
6g	.	.	.
6e-	.	.	.
6c	.	.	.
.	4eee-	.	.
6e-	.	.	.
=635	=635	=635	=635
6f	2ddd	2gg]	.
6d	.	.	.
6f	.	.	.
6d	2gg	[2gg	.
6B	.	.	.
6d	.	.	.
=636	=636	=636	=636
*^	*	*	*
6e-	2r	4ccc	1gg]	.
6c	.	.	.	.
.	.	4r	.	.
6e-	.	.	.	.
4E-	6B-	2r	.	.
.	6d-	.	.	.
4r	.	.	.	.
.	6B-	.	.	.
*v	*v	*	*	*
=637	=637	=637	=637
6AA-	2r	2aa-	pp
6E-	.	.	.
6A-	.	.	.
6c	2eee-	[2ee-	.
6A-	.	.	.
6c	.	.	.
=638	=638	=638	=638
6e-	2.eee-	1ee-_	.
6c	.	.	.
6e-	.	.	.
6c	.	.	.
6A-	.	.	.
.	4ccc	.	.
6c	.	.	.
=639	=639	=639	=639
6d-	2bb-	2ee-]	.
6B-'	.	.	.
6d-	.	.	.
6B-	2ee-	(2ee-	.
6G	.	.	.
6B-	.	.	.
=640	=640	=640	=640
*^	*	*	*
6c	2r	4aa-	2ee-)	.
6A-	.	.	.	.
.	.	4r	.	.
6c	.	.	.	.
4C	6G	2r	2een	.
.	6B-	.	.	.
4r	.	.	.	.
.	6G	.	.	.
*v	*v	*	*	*
=641	=641	=641	=641
6FF	2r	2ff	pp
6C	.	.	.
6F	.	.	.
6A-	2ccc	[2cc	.
6F	.	.	.
6A-	.	.	.
=642	=642	=642	=642
6c	2.ccc	1cc_	.
6A-	.	.	.
6c	.	.	.
6A-	.	.	.
6F	.	.	.
.	4aa-	.	.
6A-	.	.	.
=643	=643	=643	=643
6B-	2gg	2cc]	.
6G	.	.	.
6B-	.	.	.
6G	2cc	[2cc	.
6E	.	.	.
6G	.	.	.
=644	=644	=644	=644
6A-	2.ff	1cc_	.
6F	.	.	.
6A-	.	.	.
6F	.	.	.
6C	.	.	.
.	4aa-	.	.
6F	.	.	.
=645	=645	=645	=645
6B-	2gg	2cc]	.
6G	.	.	.
6B-	.	.	.
6E	2cc	[2cc	.
6G	.	.	.
6E	.	.	.
=646	=646	=646	=646
6F	2ff	1cc]	.
6A-	.	.	.
6F	.	.	.
6G	2ee-	.	.
6c	.	.	.
6G	.	.	.
*	*v	*v	*
=647	=647	=647
4A- 4f	[1cc	.
4r	.	.
4r	.	.
4A- 4f	.	.
=648	=648	=648
4A- 4f	1cc_	.
4r	.	.
4r	.	.
4A- 4f	.	.
=649	=649	=649
4A- 4f#	1cc_	.
4r	.	.
4r	.	.
4A- 4f#	.	.
=650	=650	=650
4A- 4f#	1cc]	.
4r	.	.
4r	.	.
4A- 4f#	.	.
=651	=651	=651
4G 4g	[1dd	<
*clefG2	*	*
4g 4cc	.	.
4g 4cc	.	.
4g 4cc	.	.
=652	=652	=652
4g 4cc	1dd_	.
4g 4cc	.	.
4g 4cc	.	.
4g 4cc	.	.
=653	=653	=653
*	*^	*
[1g [1b	4r	1dd_	.
.	4gg	.	.
.	4gg	.	.
.	4gg	.	.
=654	=654	=654	=654
1g] 1b]	4gg	1dd]	.
.	4gg	.	.
.	4gg	.	.
.	4gg	.	.
*clefF4	*	*	*
=655	=655	=655	=655
4CC	4r	4cc 4ee	ff
4C' 4E' 4G' 4c'	4ggg	4gg	.
[2C 2E 2G 2c	4.ggg	[2gg	.
.	8eee	.	.
=656	=656	=656	=656
2C] 2F 2G 2B	4ddd	4gg]	.
.	4gg	2.gg	.
2C 2E 2G 2c	4ccc	.	.
.	4eee	.	.
=657	=657	=657	=657
4CC	4r	4r	.
4C' 4E' 4G' 4c'	4gg	4g	p
[2C 2E 2G 2c	4.gg	[2g	.
.	8ee	.	.
=658	=658	=658	=658
2C_ 2F 2G 2B	4dd	4g]	.
.	4g	2.g	.
2C] 2E 2G 2c	4cc	.	.
.	4ee	.	.
*	*v	*v	*
=659	=659	=659
4CC	4r	.
4C' 4E' 4G' 4c'	8gggL	ff
.	8fff#J	.
[2C 2E 2G 2c	8gggL	.
.	8fff#	.
.	8ggg	.
.	8eeeJ	.
=660	=660	=660
2C_ 2F 2G 2B	8dddL	.
.	8ccc#	.
.	8ddd	.
.	8ggJ	.
2C] 2E 2G 2c	8cccnL	.
.	8bb	.
.	8ccc	.
.	8eeeJ	.
=661	=661	=661
4CC	4r	.
4C' 4E' 4G' 4c'	8ggL	p
.	8ff#J	.
[2C 2E 2G 2c	8ggL	.
.	8ff#	.
.	8gg	.
.	8eeJ	.
=662	=662	=662
2C_ 2F 2G 2B	8ddL	.
.	8cc#	.
.	8dd	.
.	8gJ	.
2C] 2E 2G 2c	8ccnL	.
.	8b	.
.	8cc	.
.	8eeJ	.
=663	=663	=663
4C 4F	8dL	.
.	8c#	.
4C 4F	8d	.
.	8GJ	.
4C 4E	8cnL	.
.	8B	.
4C 4E	8c	.
.	8eJ	.
=664	=664	=664
4C 4F	8dL	.
.	8c#	.
4C 4F	8d	.
.	8GJ	.
4C 4E	8cnL	.
.	8B	.
4C 4E	8c	.
.	8eJ	.
=665	=665	=665
4C 4F	8dL	<
.	8c#	.
4C 4F 4G	8d	.
.	8BJ	.
4C 4D 4F 4G 4B	8fL	.
.	8e	.
4C 4D 4F 4G 4B	8f	.
.	8dJ	.
=666	=666	=666
4C 4D 4F 4G 4B	8bL	.
.	8a#	.
4C 4D 4F 4G 4B	8b	.
.	8fJ	.
4C 4D 4F 4G 4B	8ddL	.
.	8cc#	.
4C 4D 4F 4G 4B	8dd	.
.	8bJ	.
=667	=667	=667
4C 4D 4F 4G 4B	8ffL	f
.	8ee	.
4C 4D 4F 4G 4B	8ff	.
.	8ddJ	.
4C 4D 4F 4G 4B	8bbL	.
.	8aa#	.
4C 4D 4F 4G 4B	8bb	.
.	8ffJ	.
=668	=668	=668
4C 4D 4F 4G 4B	8dddL	.
.	8ccc#	.
4C 4D 4F 4G 4B	8ddd	.
.	8bbJ	.
4C 4D 4F 4G 4B	8fffL	.
.	8eee	.
4C 4D 4F 4G 4B	8fff	.
.	8bbJ	.
=669	=669	=669
4CC 4C	4cccn	ff
4E' 4G'	4e' 4g'	.
4C' 4E'	4c' 4e'	.
4G' 4c'	4g' 4cc'	.
=670	=670	=670
4E' 4G'	4e' 4g'	.
4c' 4e'	4cc' 4ee'	.
4G' 4c'	4g' 4cc'	.
*clefG2	*	*
4e' 4g'	4ee' 4gg'	.
=671	=671	=671
4c' 4e'	4cc' 4ee'	.
4g' 4cc'	4gg' 4ccc'	.
4e' 4g'	4ee' 4gg'	.
4cc' 4ee'	4ccc' 4eee'	.
=672	=672	=672
4g' 4cc'	4gg' 4ccc'	.
4ee' 4gg'	4eee' 4ggg'	.
4cc' 4ee'	4ccc' 4eee'	.
4ee' 4gg'	4eee' 4ggg'	.
=673	=673	=673
4cc 4ee	4ccc 4eee	.
4r	4r	.
2r	2r	.
=674	=674	=674
4e 4g	4ee 4gg	>
4r	4r	.
2r	2r	.
=675	=675	=675
4c 4e	4cc 4ee	.
4r	4r	.
2r	2r	.
*clefF4	*	*
=676	=676	=676
4E 4G	4e 4g	.
4r	4r	.
2r	2r	.
=677	=677	=677
4C 4E	4c 4e	.
4r	4r	.
2r	2r	.
*clefG2	*	*
=678	=678	=678
4e 4g	4ee 4gg	.
4r	4r	.
4e 4g	4ee 4gg	.
4r	4r	.
=679	=679	=679
4c 4e	4cc 4ee	.
4r	4r	.
2r	2r	.
*clefF4	*	*
=680	=680	=680
4CC' 4EE' 4GG' 4C'	4gg' 4ccc' 4eee' 4ggg'	ff
4r	4r	.
4CC' 4EE' 4GG' 4C'	4gg' 4ccc' 4eee' 4ggg'	.
4r	4r	.
=681	=681	=681
4CC' 4EE' 4GG' 4C'	4ee' 4gg' 4ccc' 4eee'	.
4r	4r	.
2r	2r	.
=682	=682	=682
4CC' 4EE' 4GG' 4C'	4e' 4g' 4cc' 4ee'	f
4r	4r	.
2r	2r	.
=683	=683	=683
4CC' 4EE' 4GG' 4C'	4c' 4e' 4g' 4cc'	f
4r	4r	.
2r	2r	.
==	==	==
*-	*-	*-
!!!RDF**kern: > = above
!!!RDF**kern: < = below
!!!verovio: beamFrenchStyle
!!!LOR: Durand 1915, plates 9327/9328, Paul Dukas, ed.
!!!PED: Dukas, Paul
!!!URL-vhv: https://verovio.humdrum.org/?file=beethoven/sonatas/sonata23-3.krn
!!!URL-pdf: https://github.com/craigsapp/beethoven-piano-sonatas/blob/master/reference-edition/sonata23-3.pdf
!!!ENC: Craig Stuart Sapp
!!!END: 2007/11/27
!!!EED: Craig Stuart Sapp
!!!EEV:2020/09/03
